;FLAVOR:Marlin
;TIME:9730
;Filament used: 31.1833m
;Layer height: 0.5
;MINX:22.003
;MINY:8.098
;MINZ:0.2
;MAXX:300.641
;MAXY:344.502
;MAXZ:2.7
;Generated with Cura_SteamEngine 4.4.1
M140 S70
M105
M190 S70
M104 S220
M105
M109 S220
M82 ;absolute extrusion mode
M201 X500.00 Y500.00 Z100.00 E5000.00 ;Setup machine max acceleration
M203 X500.00 Y500.00 Z10.00 E50.00 ;Setup machine max feedrate
M204 P500.00 R1000.00 T500.00 ;Setup Print/Retract/Travel acceleration
M205 X8.00 Y8.00 Z0.40 E5.00 ;Setup Jerk
M220 S100 ;Reset Feedrate
M221 S100 ;Reset Flowrate

G28 ;Home
M420 S1 Z2 ;Enable ABL using saved Mesh and Fade Height

G92 E0 ;Reset Extruder
G1 Z2.0 F3000 ;Move Z Axis up
G1 X10.1 Y20 Z0.28 F5000.0 ;Move to start position
G1 X10.1 Y200.0 Z0.28 F1500.0 E15 ;Draw the first line
G1 X10.4 Y200.0 Z0.28 F5000.0 ;Move to side a little
G1 X10.4 Y20 Z0.28 F1500.0 E30 ;Draw the second line
G92 E0 ;Reset Extruder
G1 Z2.0 F3000 ;Move Z Axis up

G92 E0
G92 E0
G1 F1500 E-6.5
;LAYER_COUNT:6
;LAYER:0
M107
G0 F6000 X24.339 Y14.155 Z0.2
;TYPE:SKIRT
G1 F1500 E0
G1 F1200 X24.917 Y13.316 E0.10166
G1 X25.56 Y12.524 E0.20345
G1 X26.263 Y11.785 E0.30522
G1 X27.021 Y11.104 E0.4069
G1 X27.831 Y10.484 E0.50868
G1 X28.686 Y9.929 E0.61039
G1 X29.583 Y9.444 E0.71214
G1 X30.514 Y9.029 E0.81384
G1 X31.476 Y8.69 E0.91562
G1 X32.461 Y8.426 E1.01737
G1 X33.463 Y8.241 E1.11904
G1 X34.959 Y8.112 E1.26887
G1 X35.279 Y8.103 E1.30081
G1 X35.644 Y8.098 E1.33723
G1 X286.602 Y8.098 E26.37792
G1 X286.788 Y8.099 E26.39648
G1 X287.486 Y8.109 E26.46614
G1 X288.504 Y8.164 E26.56786
G1 X289.515 Y8.298 E26.66962
G1 X290.512 Y8.511 E26.77135
G1 X291.49 Y8.802 E26.87316
G1 X292.441 Y9.168 E26.97484
G1 X293.361 Y9.607 E27.07655
G1 X294.244 Y10.118 E27.17834
G1 X295.084 Y10.696 E27.28009
G1 X295.876 Y11.338 E27.38181
G1 X296.615 Y12.04 E27.48352
G1 X297.297 Y12.798 E27.58526
G1 X297.918 Y13.607 E27.68702
G1 X298.473 Y14.462 E27.78873
G1 X298.959 Y15.358 E27.89044
G1 X299.374 Y16.29 E27.99224
G1 X299.715 Y17.251 E28.09398
G1 X299.979 Y18.236 E28.19574
G1 X300.165 Y19.238 E28.29743
G1 X300.295 Y20.743 E28.44815
G1 X300.304 Y21.063 E28.4801
G1 X300.309 Y21.428 E28.51652
G1 X300.309 Y117.376 E38.09025
G1 X300.308 Y117.557 E38.10831
G1 X300.28 Y119.572 E38.30939
G1 X300.28 Y122.1 E38.56163
G1 X300.35 Y124.579 E38.80909
G1 X300.491 Y127.061 E39.05714
G1 X300.588 Y128.298 E39.18095
G1 X300.62 Y128.866 E39.23771
G1 X300.633 Y129.241 E39.27515
G1 X300.641 Y129.691 E39.32006
G1 X300.641 Y225.659 E48.89579
G1 X300.64 Y225.845 E48.91435
G1 X300.63 Y226.542 E48.9839
G1 X300.569 Y227.624 E49.09203
G1 X300.445 Y228.885 E49.21846
G1 X300.217 Y231.531 E49.48346
G1 X300.078 Y233.978 E49.72802
G1 X300.006 Y236.489 E49.97867
G1 X299.997 Y237.784 E50.10789
G1 X299.997 Y330.766 E59.38567
G1 X299.996 Y330.945 E59.40353
G1 X299.986 Y331.672 E59.47608
G1 X299.932 Y332.69 E59.5778
G1 X299.798 Y333.701 E59.67956
G1 X299.586 Y334.698 E59.78126
G1 X299.296 Y335.676 E59.88305
G1 X298.93 Y336.627 E59.98472
G1 X298.491 Y337.548 E60.08653
G1 X297.981 Y338.43 E60.18819
G1 X297.404 Y339.271 E60.28995
G1 X296.762 Y340.063 E60.39168
G1 X296.06 Y340.803 E60.49346
G1 X295.303 Y341.485 E60.59513
G1 X294.494 Y342.106 E60.69689
G1 X293.639 Y342.662 E60.79865
G1 X292.743 Y343.149 E60.90041
G1 X291.812 Y343.564 E61.00211
G1 X290.851 Y343.905 E61.10386
G1 X289.867 Y344.17 E61.20554
G1 X288.864 Y344.357 E61.30735
G1 X287.352 Y344.488 E61.45878
G1 X287.032 Y344.497 E61.49072
G1 X286.667 Y344.502 E61.52715
G1 X35.71 Y344.502 E86.56774
G1 X35.542 Y344.501 E86.5845
G1 X34.844 Y344.492 E86.65415
G1 X33.826 Y344.439 E86.75587
G1 X32.815 Y344.306 E86.85762
G1 X31.818 Y344.094 E86.95932
G1 X30.84 Y343.805 E87.06108
G1 X29.888 Y343.441 E87.16277
G1 X28.967 Y343.002 E87.26458
G1 X28.084 Y342.493 E87.36627
G1 X27.243 Y341.916 E87.46804
G1 X26.45 Y341.275 E87.56978
G1 X25.71 Y340.574 E87.67149
G1 X25.027 Y339.817 E87.77323
G1 X24.405 Y339.009 E87.87497
G1 X23.849 Y338.155 E87.97665
G1 X23.361 Y337.259 E88.07845
G1 X22.945 Y336.329 E88.18011
G1 X22.603 Y335.368 E88.28189
G1 X22.337 Y334.384 E88.3836
G1 X22.15 Y333.381 E88.4854
G1 X22.041 Y332.368 E88.58706
G1 X22.017 Y331.844 E88.6394
G1 X22.008 Y331.511 E88.67264
G1 X22.003 Y331.16 E88.70767
G1 X22.003 Y235.205 E98.2821
G1 X22.004 Y235.019 E98.30066
G1 X22.014 Y234.322 E98.37021
G1 X22.075 Y233.24 E98.47835
G1 X22.192 Y232.042 E98.59845
G1 X22.423 Y229.396 E98.86347
G1 X22.562 Y226.99 E99.10395
G1 X22.635 Y224.452 E99.35729
G1 X22.646 Y223.074 E99.4948
G1 X22.646 Y130.059 E108.77587
G1 X22.647 Y129.876 E108.79413
G1 X22.675 Y127.888 E108.99251
G1 X22.675 Y125.363 E109.24446
G1 X22.605 Y122.882 E109.49211
G1 X22.464 Y120.403 E109.73987
G1 X22.367 Y119.164 E109.86387
G1 X22.335 Y118.599 E109.92034
G1 X22.322 Y118.226 E109.95758
G1 X22.314 Y117.773 E110.00279
G1 X22.314 Y21.772 E119.58181
G1 X22.315 Y21.577 E119.60126
G1 X22.325 Y20.912 E119.66763
G1 X22.381 Y19.893 E119.76946
G1 X22.516 Y18.883 E119.87113
G1 X22.729 Y17.886 E119.97286
G1 X23.021 Y16.909 E120.0746
G1 X23.387 Y15.957 E120.17637
G1 X23.828 Y15.038 E120.27808
G1 X24.339 Y14.155 E120.37988
G0 F6000 X25.528 Y14.528
G1 F1200 X26.103 Y13.744 E120.47689
G1 X26.74 Y13.011 E120.57379
G1 X27.435 Y12.332 E120.67074
G1 X28.183 Y11.713 E120.76761
G1 X28.98 Y11.157 E120.86458
G1 X29.82 Y10.669 E120.96151
G1 X30.697 Y10.252 E121.05841
G1 X31.605 Y9.908 E121.15529
G1 X32.539 Y9.64 E121.25225
G1 X33.492 Y9.45 E121.34921
G1 X34.457 Y9.339 E121.44613
G1 X34.992 Y9.312 E121.49958
G1 X35.312 Y9.303 E121.53153
G1 X35.644 Y9.298 E121.56466
G1 X286.602 Y9.298 E146.60535
G1 X286.771 Y9.299 E146.62221
G1 X287.469 Y9.309 E146.69186
G1 X288.439 Y9.363 E146.7888
G1 X289.401 Y9.497 E146.88572
G1 X290.349 Y9.709 E146.98265
G1 X291.276 Y9.998 E147.07953
G1 X292.177 Y10.363 E147.17653
G1 X293.044 Y10.8 E147.27341
G1 X293.872 Y11.308 E147.37034
G1 X294.656 Y11.882 E147.46729
G1 X295.39 Y12.518 E147.5642
G1 X296.069 Y13.212 E147.66108
G1 X296.689 Y13.96 E147.75802
G1 X297.245 Y14.757 E147.85498
G1 X297.734 Y15.596 E147.95188
G1 X298.152 Y16.473 E148.04882
G1 X298.496 Y17.382 E148.1458
G1 X298.765 Y18.315 E148.24268
G1 X298.956 Y19.268 E148.33966
G1 X299.067 Y20.232 E148.43649
G1 X299.095 Y20.776 E148.49084
G1 X299.104 Y21.096 E148.52278
G1 X299.109 Y21.428 E148.55591
G1 X299.109 Y117.376 E158.12964
G1 X299.108 Y117.54 E158.14601
G1 X299.08 Y119.521 E158.34369
G1 X299.08 Y122.134 E158.60442
G1 X299.15 Y124.61 E158.85157
G1 X299.293 Y127.131 E159.10353
G1 X299.392 Y128.392 E159.22974
G1 X299.421 Y128.907 E159.2812
G1 X299.434 Y129.282 E159.31864
G1 X299.441 Y129.691 E159.35946
G1 X299.441 Y225.659 E168.93519
G1 X299.44 Y225.828 E168.95205
G1 X299.43 Y226.525 E169.0216
G1 X299.375 Y227.507 E169.11974
G1 X299.244 Y228.844 E169.25379
G1 X299.021 Y231.428 E169.51258
G1 X298.878 Y233.946 E169.76423
G1 X298.806 Y236.447 E170.01388
G1 X298.797 Y237.776 E170.14649
G1 X298.797 Y330.766 E179.42507
G1 X298.796 Y330.928 E179.44124
G1 X298.786 Y331.655 E179.51379
G1 X298.733 Y332.625 E179.61072
G1 X298.6 Y333.587 E179.70762
G1 X298.388 Y334.536 E179.80465
G1 X298.099 Y335.463 E179.90153
G1 X297.735 Y336.364 E179.99849
G1 X297.298 Y337.231 E180.09537
G1 X296.791 Y338.06 E180.19233
G1 X296.218 Y338.844 E180.28923
G1 X295.582 Y339.578 E180.38613
G1 X294.888 Y340.258 E180.48308
G1 X294.14 Y340.878 E180.58002
G1 X293.344 Y341.434 E180.67691
G1 X292.505 Y341.924 E180.77385
G1 X291.628 Y342.342 E180.87079
G1 X290.72 Y342.687 E180.96771
G1 X289.787 Y342.956 E181.0646
G1 X288.834 Y343.148 E181.1616
G1 X287.869 Y343.26 E181.25854
G1 X287.319 Y343.288 E181.31349
G1 X286.999 Y343.297 E181.34543
G1 X286.667 Y343.302 E181.37856
G1 X35.71 Y343.302 E206.41915
G1 X35.558 Y343.301 E206.43432
G1 X34.86 Y343.292 E206.50397
G1 X33.89 Y343.24 E206.6009
G1 X32.928 Y343.107 E206.6978
G1 X31.979 Y342.897 E206.79478
G1 X31.052 Y342.609 E206.89164
G1 X30.151 Y342.245 E206.9886
G1 X29.283 Y341.809 E207.08552
G1 X28.454 Y341.303 E207.18243
G1 X27.669 Y340.73 E207.2794
G1 X26.934 Y340.095 E207.37632
G1 X26.254 Y339.401 E207.47327
G1 X25.633 Y338.654 E207.5702
G1 X25.076 Y337.858 E207.66714
G1 X24.586 Y337.02 E207.764
G1 X24.167 Y336.143 E207.86098
G1 X23.821 Y335.236 E207.95784
G1 X23.551 Y334.302 E208.05485
G1 X23.359 Y333.35 E208.15176
G1 X23.246 Y332.385 E208.2487
G1 X23.216 Y331.812 E208.30596
G1 X23.207 Y331.479 E208.3392
G1 X23.203 Y331.16 E208.37103
G1 X23.203 Y235.205 E217.94546
G1 X23.204 Y235.036 E217.96232
G1 X23.214 Y234.339 E218.03187
G1 X23.269 Y233.357 E218.13001
G1 X23.385 Y232.17 E218.24902
G1 X23.621 Y229.466 E218.51985
G1 X23.762 Y227.024 E218.76392
G1 X23.835 Y224.497 E219.01617
G1 X23.846 Y223.084 E219.15716
G1 X23.846 Y130.059 E228.43923
G1 X23.847 Y129.893 E228.4558
G1 X23.875 Y127.905 E228.65418
G1 X23.875 Y125.329 E228.91121
G1 X23.805 Y122.851 E229.15857
G1 X23.662 Y120.334 E229.41012
G1 X23.563 Y119.07 E229.53663
G1 X23.534 Y118.557 E229.5879
G1 X23.521 Y118.184 E229.62514
G1 X23.514 Y117.773 E229.66616
G1 X23.514 Y21.772 E239.24517
G1 X23.515 Y21.595 E239.26284
G1 X23.525 Y20.93 E239.3292
G1 X23.58 Y19.96 E239.42614
G1 X23.714 Y18.998 E239.52306
G1 X23.927 Y18.05 E239.62001
G1 X24.217 Y17.123 E239.71692
G1 X24.582 Y16.223 E239.81383
G1 X25.02 Y15.356 E239.91075
G1 X25.528 Y14.528 E240.00768
G0 F6000 X26.212 Y15.691
G1 F1200 X26.717 Y14.92 E240.09964
G1 X27.286 Y14.197 E240.19145
G1 X27.916 Y13.525 E240.28336
G1 X28.602 Y12.911 E240.37522
G1 X29.338 Y12.359 E240.46702
G1 X30.12 Y11.872 E240.55894
G1 X30.941 Y11.456 E240.65078
G1 X31.795 Y11.112 E240.74264
G1 X32.675 Y10.843 E240.83446
G1 X33.576 Y10.652 E240.92636
G1 X34.49 Y10.54 E241.01824
G1 X35.026 Y10.511 E241.0718
G1 X35.346 Y10.502 E241.10374
G1 X35.644 Y10.498 E241.13348
G1 X286.602 Y10.498 E266.17417
G1 X286.754 Y10.499 E266.18934
G1 X287.452 Y10.509 E266.25899
G1 X288.371 Y10.562 E266.35084
G1 X289.282 Y10.695 E266.44271
G1 X290.178 Y10.906 E266.53456
G1 X291.052 Y11.194 E266.62638
G1 X291.899 Y11.557 E266.71832
G1 X292.71 Y11.992 E266.81015
G1 X293.48 Y12.496 E266.90198
G1 X294.204 Y13.065 E266.99386
G1 X294.876 Y13.695 E267.08577
G1 X295.491 Y14.38 E267.17762
G1 X296.044 Y15.116 E267.26948
G1 X296.531 Y15.897 E267.36132
G1 X296.948 Y16.718 E267.4532
G1 X297.293 Y17.572 E267.5451
G1 X297.562 Y18.452 E267.63692
G1 X297.754 Y19.353 E267.72884
G1 X297.867 Y20.266 E267.82064
G1 X297.896 Y20.81 E267.87499
G1 X297.905 Y21.13 E267.90694
G1 X297.909 Y21.428 E267.93667
G1 X297.909 Y117.376 E277.5104
G1 X297.908 Y117.523 E277.52507
G1 X297.88 Y119.521 E277.72445
G1 X297.88 Y122.132 E277.98498
G1 X297.952 Y124.677 E278.23902
G1 X298.098 Y127.247 E278.49587
G1 X298.195 Y128.486 E278.61988
G1 X298.222 Y128.949 E278.66616
G1 X298.235 Y129.324 E278.7036
G1 X298.241 Y129.691 E278.74022
G1 X298.241 Y225.659 E288.31595
G1 X298.24 Y225.811 E288.33111
G1 X298.23 Y226.508 E288.40067
G1 X298.18 Y227.39 E288.48881
G1 X298.061 Y228.603 E288.61043
G1 X297.823 Y231.362 E288.88675
G1 X297.68 Y233.877 E289.1381
G1 X297.606 Y236.45 E289.39494
G1 X297.597 Y237.768 E289.52645
G1 X297.597 Y330.766 E298.80583
G1 X297.596 Y330.912 E298.8204
G1 X297.586 Y331.639 E298.89295
G1 X297.533 Y332.558 E298.9848
G1 X297.401 Y333.469 E299.07665
G1 X297.19 Y334.365 E299.1685
G1 X296.903 Y335.24 E299.26038
G1 X296.54 Y336.086 E299.35224
G1 X296.106 Y336.898 E299.44411
G1 X295.602 Y337.669 E299.53601
G1 X295.034 Y338.393 E299.62783
G1 X294.405 Y339.065 E299.71968
G1 X293.72 Y339.68 E299.81153
G1 X292.984 Y340.233 E299.90339
G1 X292.203 Y340.721 E299.99528
G1 X291.383 Y341.139 E300.08712
G1 X290.529 Y341.484 E300.17902
G1 X289.649 Y341.753 E300.27084
G1 X288.748 Y341.946 E300.36278
G1 X287.835 Y342.059 E300.45457
G1 X287.285 Y342.089 E300.50953
G1 X286.965 Y342.098 E300.54148
G1 X286.667 Y342.102 E300.57121
G1 X35.71 Y342.102 E325.61181
G1 X35.573 Y342.101 E325.62548
G1 X34.875 Y342.092 E325.69513
G1 X33.956 Y342.04 E325.78697
G1 X33.045 Y341.909 E325.87881
G1 X32.149 Y341.699 E325.97063
G1 X31.274 Y341.412 E326.06252
G1 X30.427 Y341.05 E326.15443
G1 X29.615 Y340.616 E326.2463
G1 X28.844 Y340.114 E326.3381
G1 X28.119 Y339.546 E326.42999
G1 X27.446 Y338.917 E326.52191
G1 X26.831 Y338.233 E326.61369
G1 X26.277 Y337.498 E326.70553
G1 X25.789 Y336.717 E326.79742
G1 X25.37 Y335.897 E326.8893
G1 X25.024 Y335.044 E326.98115
G1 X24.754 Y334.164 E327.073
G1 X24.561 Y333.263 E327.16494
G1 X24.447 Y332.35 E327.25675
G1 X24.416 Y331.779 E327.3138
G1 X24.407 Y331.446 E327.34704
G1 X24.403 Y331.16 E327.37558
G1 X24.403 Y235.205 E336.95001
G1 X24.404 Y235.053 E336.96518
G1 X24.414 Y234.356 E337.03473
G1 X24.464 Y233.474 E337.12288
G1 X24.579 Y232.299 E337.24068
G1 X24.816 Y229.571 E337.51391
G1 X24.96 Y227.092 E337.76168
G1 X25.035 Y224.494 E338.02102
G1 X25.046 Y223.093 E338.16082
G1 X25.046 Y130.059 E347.44379
G1 X25.047 Y129.91 E347.45865
G1 X25.075 Y127.922 E347.65704
G1 X25.075 Y125.331 E347.91557
G1 X25.003 Y122.786 E348.16961
G1 X24.857 Y120.215 E348.42656
G1 X24.76 Y118.976 E348.55057
G1 X24.733 Y118.515 E348.59664
G1 X24.72 Y118.142 E348.63388
G1 X24.714 Y117.773 E348.67071
G1 X24.714 Y21.772 E358.24973
G1 X24.715 Y21.613 E358.26559
G1 X24.725 Y20.948 E358.33195
G1 X24.779 Y20.029 E358.42381
G1 X24.912 Y19.118 E358.51567
G1 X25.124 Y18.222 E358.60754
G1 X25.413 Y17.347 E358.69949
G1 X25.777 Y16.502 E358.7913
G1 X26.212 Y15.691 E358.88312
G1 F1500 E352.38312
;MESH:planck_plate.stl
G0 F6000 X34.649 Y22.018
G0 X36.234 Y22.018
G0 X281.349 Y22.66
G0 X282.017 Y22.73
G0 X282.66 Y22.93
G0 X283.141 Y23.19
G0 X285.509 Y25.134
;TYPE:WALL-INNER
G1 F1500 E358.88312
G1 F1200 X285.312 Y24.478 E358.95147
G1 X284.92 Y23.731 E359.03564
G1 X284.748 Y23.519 E359.06288
G1 X284.388 Y23.078 E359.11969
G1 X284.173 Y22.898 E359.14766
G1 X284.388 Y22.898
G1 X284.92 Y22.898 E359.16816
G1 X285.509 Y22.898 E359.20833
G1 X285.509 Y23.078
G1 X285.509 Y23.731 E359.25158
G1 X285.509 Y24.478 E359.27433
G1 X285.509 Y25.134 E359.27907
G0 F6000 X285.509 Y27.074
G1 F1200 X285.509 Y27.775 E359.34901
G1 X285.509 Y28.519 E359.42325
G1 X285.509 Y29.166 E359.48781
G1 X285.509 Y29.203 E359.4915
G1 X285.509 Y109.995 E367.55296
G1 X285.509 Y110.078 E367.56124
G1 X285.509 Y110.731 E367.6264
G1 X285.509 Y111.478 E367.70093
G1 X285.509 Y112.134 E367.76639
G1 X285.312 Y111.478 E367.77393
G1 X284.92 Y110.731 E367.80628
G1 X284.388 Y110.078 E367.87014
G1 X284.325 Y110.025 E367.87811
G1 X283.741 Y109.536 E367.95411
G1 X282.996 Y109.133 E368.03863
G1 X282.191 Y108.883 E368.12274
G1 X281.357 Y108.796 E368.2064
G1 X280.516 Y108.868 E368.29063
G1 X279.701 Y109.109 E368.37543
G1 X278.952 Y109.504 E368.45992
G1 X278.299 Y110.035 E368.5439
G1 X277.758 Y110.683 E368.62813
G1 X277.355 Y111.427 E368.71256
G1 X277.105 Y112.233 E368.79676
G1 X277.018 Y113.068 E368.88053
G1 X277.09 Y113.907 E368.96455
G1 X277.331 Y114.721 E369.04926
G1 X277.585 Y115.202 E369.10353
G1 X277.726 Y115.471 E369.13384
G1 X278.257 Y116.125 E369.21789
G1 X278.469 Y116.302 E369.24545
G1 X278.257 Y116.302
G1 X277.726 Y116.302 E369.26237
G1 X277.422 Y116.302 E369.28873
G1 X165.235 Y116.302 E380.4828
G1 X164.887 Y116.302 E380.51752
G1 X164.346 Y116.302 E380.5715
G1 X164.179 Y116.302 E380.58817
G1 X164.346 Y116.166 E380.59043
G1 X164.887 Y115.519 E380.6358
G1 X165.052 Y115.213 E380.66531
G1 X165.288 Y114.775 E380.71495
G1 X165.541 Y113.972 E380.79896
G1 X165.628 Y113.135 E380.88292
G1 X165.556 Y112.291 E380.96745
G1 X165.312 Y111.478 E381.05214
G1 X164.92 Y110.731 E381.13632
G1 X164.388 Y110.078 E381.22036
G1 X163.741 Y109.536 E381.30458
G1 X162.996 Y109.133 E381.38909
G1 X162.191 Y108.883 E381.4732
G1 X161.357 Y108.796 E381.55687
G1 X160.516 Y108.868 E381.64109
G1 X159.701 Y109.109 E381.72589
G1 X158.952 Y109.504 E381.81038
G1 X158.299 Y110.035 E381.89436
G1 X157.758 Y110.683 E381.97859
G1 X157.355 Y111.427 E382.06302
G1 X157.105 Y112.233 E382.14722
G1 X157.018 Y113.068 E382.23099
G1 X157.09 Y113.907 E382.31501
G1 X157.331 Y114.721 E382.39972
G1 X157.585 Y115.202 E382.454
G1 X157.726 Y115.471 E382.4843
G1 X158.257 Y116.125 E382.56836
G1 X158.469 Y116.302 E382.59591
G1 X158.257 Y116.302
G1 X157.726 Y116.302 E382.61284
