;FLAVOR:Marlin
;TIME:13916
;Filament used: 35.1402m
;Layer height: 0.5
;MINX:34.49
;MINY:112.301
;MINZ:0.2
;MAXX:315.51
;MAXY:237.699
;MAXZ:8.7
;Generated with Cura_SteamEngine 4.4.1
M140 S70
M105
M190 S70
M104 S220
M105
M109 S220
M82 ;absolute extrusion mode
M201 X500.00 Y500.00 Z100.00 E5000.00 ;Setup machine max acceleration
M203 X500.00 Y500.00 Z10.00 E50.00 ;Setup machine max feedrate
M204 P500.00 R1000.00 T500.00 ;Setup Print/Retract/Travel acceleration
M205 X8.00 Y8.00 Z0.40 E5.00 ;Setup Jerk
M220 S100 ;Reset Feedrate
M221 S100 ;Reset Flowrate

G28 ;Home
M420 S1 Z2 ;Enable ABL using saved Mesh and Fade Height

G92 E0 ;Reset Extruder
G1 Z2.0 F3000 ;Move Z Axis up
G1 X10.1 Y20 Z0.28 F5000.0 ;Move to start position
G1 X10.1 Y200.0 Z0.28 F1500.0 E15 ;Draw the first line
G1 X10.4 Y200.0 Z0.28 F5000.0 ;Move to side a little
G1 X10.4 Y20 Z0.28 F1500.0 E30 ;Draw the second line
G92 E0 ;Reset Extruder
G1 Z2.0 F3000 ;Move Z Axis up

G92 E0
G92 E0
G1 F1500 E-6.5
;LAYER_COUNT:18
;LAYER:0
M107
G0 F6000 X42.671 Y113.24 Z0.2
;TYPE:SKIRT
G1 F1500 E0
G1 F1200 X43.632 Y112.898 E0.10178
G1 X44.617 Y112.634 E0.20353
G1 X45.619 Y112.447 E0.30524
G1 X47.135 Y112.315 E0.45708
G1 X47.456 Y112.306 E0.48912
G1 X47.82 Y112.301 E0.52544
G1 X301.803 Y112.301 E25.86797
G1 X301.989 Y112.302 E25.88653
G1 X302.687 Y112.312 E25.95618
G1 X303.705 Y112.367 E26.05791
G1 X304.716 Y112.501 E26.15967
G1 X305.713 Y112.714 E26.26139
G1 X306.691 Y113.005 E26.36321
G1 X307.642 Y113.371 E26.46488
G1 X308.562 Y113.81 E26.5666
G1 X309.445 Y114.321 E26.66839
G1 X310.285 Y114.899 E26.77013
G1 X311.077 Y115.541 E26.87186
G1 X311.816 Y116.243 E26.97357
G1 X312.498 Y117.001 E27.07531
G1 X313.119 Y117.81 E27.17707
G1 X313.674 Y118.665 E27.27878
G1 X314.16 Y119.561 E27.38049
G1 X314.575 Y120.493 E27.48229
G1 X314.916 Y121.454 E27.58403
G1 X315.18 Y122.439 E27.68579
G1 X315.366 Y123.441 E27.78747
G1 X315.496 Y124.946 E27.9382
G1 X315.505 Y125.266 E27.97014
G1 X315.51 Y125.631 E28.00657
G1 X315.51 Y223.963 E37.81817
G1 X315.509 Y224.124 E37.83424
G1 X315.5 Y224.851 E37.90679
G1 X315.447 Y225.869 E38.0085
G1 X315.315 Y226.88 E38.11023
G1 X315.104 Y227.878 E38.21202
G1 X314.816 Y228.856 E38.31374
G1 X314.451 Y229.808 E38.41548
G1 X314.013 Y230.729 E38.51724
G1 X313.505 Y231.612 E38.61889
G1 X312.928 Y232.453 E38.72065
G1 X312.288 Y233.247 E38.82241
G1 X311.587 Y233.987 E38.92412
G1 X310.831 Y234.671 E39.02584
G1 X310.023 Y235.293 E39.12759
G1 X309.169 Y235.85 E39.22932
G1 X308.273 Y236.338 E39.33113
G1 X307.343 Y236.755 E39.43282
G1 X306.382 Y237.097 E39.5346
G1 X305.398 Y237.363 E39.63631
G1 X304.396 Y237.551 E39.73804
G1 X303.382 Y237.66 E39.8398
G1 X302.865 Y237.685 E39.89144
G1 X302.544 Y237.694 E39.92349
G1 X302.18 Y237.699 E39.95981
G1 X48.197 Y237.699 E65.30234
G1 X48.029 Y237.698 E65.3191
G1 X47.331 Y237.689 E65.38875
G1 X46.313 Y237.636 E65.49047
G1 X45.302 Y237.503 E65.59221
G1 X44.305 Y237.291 E65.69392
G1 X43.327 Y237.002 E65.79568
G1 X42.375 Y236.638 E65.89737
G1 X41.454 Y236.199 E65.99918
G1 X40.571 Y235.69 E66.10087
G1 X39.73 Y235.113 E66.20264
G1 X38.937 Y234.472 E66.30438
G1 X38.197 Y233.771 E66.40609
G1 X37.514 Y233.014 E66.50782
G1 X36.892 Y232.206 E66.60957
G1 X36.336 Y231.352 E66.71125
G1 X35.848 Y230.456 E66.81305
G1 X35.432 Y229.526 E66.91471
G1 X35.09 Y228.565 E67.01649
G1 X34.824 Y227.581 E67.1182
G1 X34.637 Y226.578 E67.22
G1 X34.528 Y225.565 E67.32166
G1 X34.504 Y225.041 E67.374
G1 X34.495 Y224.708 E67.40724
G1 X34.49 Y224.357 E67.44227
G1 X34.49 Y125.975 E77.25886
G1 X34.491 Y125.799 E77.27642
G1 X34.5 Y125.134 E77.34278
G1 X34.554 Y124.116 E77.4445
G1 X34.687 Y123.105 E77.54625
G1 X34.9 Y122.108 E77.64798
G1 X35.189 Y121.13 E77.74973
G1 X35.555 Y120.178 E77.8515
G1 X35.994 Y119.258 E77.95322
G1 X36.503 Y118.375 E78.05491
G1 X37.081 Y117.535 E78.15665
G1 X37.722 Y116.742 E78.2584
G1 X38.424 Y116.002 E78.36017
G1 X39.181 Y115.319 E78.46191
G1 X39.99 Y114.698 E78.56367
G1 X40.844 Y114.142 E78.66535
G1 X41.74 Y113.655 E78.76711
G1 X42.671 Y113.24 E78.86881
G0 F6000 X42.856 Y114.462
G1 F1200 X43.764 Y114.117 E78.96573
G1 X44.697 Y113.848 E79.06262
G1 X45.649 Y113.656 E79.15952
G1 X46.614 Y113.543 E79.25647
G1 X47.168 Y113.515 E79.31182
G1 X47.489 Y113.506 E79.34386
G1 X47.82 Y113.501 E79.37689
G1 X301.803 Y113.501 E104.71942
G1 X301.972 Y113.502 E104.73628
G1 X302.67 Y113.512 E104.80594
G1 X303.64 Y113.566 E104.90287
G1 X304.602 Y113.7 E104.99979
G1 X305.55 Y113.912 E105.09672
G1 X306.477 Y114.201 E105.1936
G1 X307.378 Y114.566 E105.2906
G1 X308.245 Y115.003 E105.38748
G1 X309.073 Y115.511 E105.48441
G1 X309.857 Y116.085 E105.58136
G1 X310.591 Y116.721 E105.67827
G1 X311.27 Y117.415 E105.77515
G1 X311.89 Y118.163 E105.87209
G1 X312.446 Y118.96 E105.96905
G1 X312.935 Y119.799 E106.06595
G1 X313.353 Y120.676 E106.16289
G1 X313.697 Y121.585 E106.25987
G1 X313.966 Y122.518 E106.35675
G1 X314.157 Y123.471 E106.45374
G1 X314.268 Y124.435 E106.55056
G1 X314.296 Y124.979 E106.60491
G1 X314.305 Y125.299 E106.63685
G1 X314.31 Y125.631 E106.66998
G1 X314.31 Y223.963 E116.48159
G1 X314.309 Y224.109 E116.49616
G1 X314.3 Y224.836 E116.56871
G1 X314.248 Y225.806 E116.66563
G1 X314.116 Y226.769 E116.76262
G1 X313.906 Y227.717 E116.8595
G1 X313.619 Y228.645 E116.95643
G1 X313.256 Y229.546 E117.05335
G1 X312.82 Y230.414 E117.15027
G1 X312.314 Y231.243 E117.24718
G1 X311.742 Y232.028 E117.3441
G1 X311.107 Y232.763 E117.44102
G1 X310.414 Y233.444 E117.53796
G1 X309.667 Y234.065 E117.63489
G1 X308.871 Y234.623 E117.73189
G1 X308.033 Y235.113 E117.82875
G1 X307.157 Y235.533 E117.92568
G1 X306.249 Y235.879 E118.02264
G1 X305.316 Y236.149 E118.11955
G1 X304.364 Y236.342 E118.21648
G1 X303.399 Y236.456 E118.31344
G1 X302.832 Y236.485 E118.37008
G1 X302.511 Y236.494 E118.40213
G1 X302.18 Y236.499 E118.43516
G1 X48.197 Y236.499 E143.77768
G1 X48.045 Y236.498 E143.79285
G1 X47.347 Y236.489 E143.8625
G1 X46.377 Y236.437 E143.95943
G1 X45.415 Y236.304 E144.05633
G1 X44.466 Y236.094 E144.15331
G1 X43.539 Y235.806 E144.25017
G1 X42.638 Y235.442 E144.34713
G1 X41.77 Y235.006 E144.44405
G1 X40.941 Y234.5 E144.54096
G1 X40.156 Y233.927 E144.63794
G1 X39.421 Y233.292 E144.73486
G1 X38.741 Y232.598 E144.83181
G1 X38.12 Y231.851 E144.92873
G1 X37.563 Y231.055 E145.02567
G1 X37.073 Y230.217 E145.12253
G1 X36.654 Y229.34 E145.21952
G1 X36.308 Y228.433 E145.31638
G1 X36.038 Y227.499 E145.41339
G1 X35.846 Y226.547 E145.51029
G1 X35.733 Y225.582 E145.60724
G1 X35.703 Y225.009 E145.66449
G1 X35.694 Y224.676 E145.69773
G1 X35.69 Y224.357 E145.72956
G1 X35.69 Y125.975 E155.54616
G1 X35.691 Y125.815 E155.56212
G1 X35.7 Y125.15 E155.62848
G1 X35.753 Y124.18 E155.72541
G1 X35.886 Y123.218 E155.82232
G1 X36.097 Y122.27 E155.91922
G1 X36.386 Y121.342 E156.01621
G1 X36.75 Y120.442 E156.11307
G1 X37.187 Y119.574 E156.21004
G1 X37.694 Y118.745 E156.307
G1 X38.267 Y117.961 E156.4039
G1 X38.902 Y117.227 E156.50074
G1 X39.596 Y116.547 E156.59769
G1 X40.344 Y115.927 E156.69463
G1 X41.14 Y115.37 E156.79157
G1 X41.979 Y114.881 E156.88846
G1 X42.856 Y114.462 E156.98545
G0 F6000 X43.955 Y115.32
G1 F1200 X44.835 Y115.05 E157.07729
G1 X45.735 Y114.858 E157.16912
G1 X46.649 Y114.744 E157.26102
G1 X47.202 Y114.714 E157.31628
G1 X47.523 Y114.705 E157.34832
G1 X47.82 Y114.701 E157.37796
G1 X301.803 Y114.701 E182.72049
G1 X301.955 Y114.702 E182.73566
G1 X302.653 Y114.712 E182.80531
G1 X303.572 Y114.765 E182.89716
G1 X304.483 Y114.898 E182.98902
G1 X305.379 Y115.109 E183.08087
G1 X306.253 Y115.397 E183.17269
G1 X307.1 Y115.76 E183.26464
G1 X307.911 Y116.195 E183.35647
G1 X308.681 Y116.699 E183.44829
G1 X309.405 Y117.268 E183.54018
G1 X310.077 Y117.898 E183.63209
G1 X310.692 Y118.583 E183.72394
G1 X311.245 Y119.319 E183.8158
G1 X311.732 Y120.1 E183.90764
G1 X312.149 Y120.921 E183.99952
G1 X312.494 Y121.775 E184.09142
G1 X312.763 Y122.655 E184.18324
G1 X312.955 Y123.556 E184.27516
G1 X313.068 Y124.469 E184.36695
G1 X313.097 Y125.013 E184.42131
G1 X313.106 Y125.333 E184.45325
G1 X313.11 Y125.631 E184.48299
G1 X313.11 Y223.963 E194.2946
G1 X313.109 Y224.094 E194.30767
G1 X313.1 Y224.821 E194.38022
G1 X313.049 Y225.74 E194.47206
G1 X312.918 Y226.652 E194.56399
G1 X312.708 Y227.548 E194.65581
G1 X312.422 Y228.423 E194.74767
G1 X312.061 Y229.27 E194.83954
G1 X311.627 Y230.082 E194.93141
G1 X311.125 Y230.854 E195.02329
G1 X310.557 Y231.579 E195.11519
G1 X309.929 Y232.252 E195.20704
G1 X309.245 Y232.868 E195.29888
G1 X308.51 Y233.422 E195.39072
G1 X307.73 Y233.911 E195.48258
G1 X306.91 Y234.33 E195.57446
G1 X306.057 Y234.676 E195.66631
G1 X305.177 Y234.947 E195.75819
G1 X304.277 Y235.14 E195.85003
G1 X303.363 Y235.255 E195.94195
G1 X302.798 Y235.286 E195.99841
G1 X302.477 Y235.295 E196.03045
G1 X302.18 Y235.299 E196.06009
G1 X48.197 Y235.299 E221.40262
G1 X48.06 Y235.298 E221.41629
G1 X47.362 Y235.289 E221.48594
G1 X46.443 Y235.237 E221.57778
G1 X45.532 Y235.106 E221.66962
G1 X44.636 Y234.896 E221.76145
G1 X43.761 Y234.609 E221.85333
G1 X42.914 Y234.247 E221.94524
G1 X42.102 Y233.813 E222.03711
G1 X41.331 Y233.311 E222.12891
G1 X40.606 Y232.743 E222.22081
G1 X39.933 Y232.114 E222.31272
G1 X39.318 Y231.43 E222.4045
G1 X38.764 Y230.695 E222.49634
G1 X38.276 Y229.914 E222.58823
G1 X37.857 Y229.094 E222.68011
G1 X37.511 Y228.241 E222.77196
G1 X37.241 Y227.361 E222.86381
G1 X37.048 Y226.46 E222.95575
G1 X36.934 Y225.547 E223.04756
G1 X36.903 Y224.976 E223.10462
G1 X36.894 Y224.643 E223.13785
G1 X36.89 Y224.357 E223.16639
G1 X36.89 Y125.975 E232.98299
G1 X36.891 Y125.832 E232.99726
G1 X36.9 Y125.167 E233.06362
G1 X36.952 Y124.247 E233.15556
G1 X37.084 Y123.336 E233.24741
G1 X37.295 Y122.44 E233.33926
G1 X37.582 Y121.565 E233.43115
G1 X37.945 Y120.719 E233.523
G1 X38.379 Y119.907 E233.61487
G1 X38.882 Y119.136 E233.70673
G1 X39.451 Y118.412 E233.79861
G1 X40.079 Y117.74 E233.89038
G1 X40.764 Y117.124 E233.9823
G1 X41.5 Y116.571 E234.07416
G1 X42.281 Y116.083 E234.16605
G1 X43.101 Y115.665 E234.25789
G1 X43.955 Y115.32 E234.34979
G1 F1500 E227.84979
;MESH:planck_top.stl
G0 F6000 X54.811 Y130.158
G0 X60.302 Y130.111
G0 X59.062 Y134.607
G0 X77.795 Y138.469
G0 X78.598 Y139.473
G0 X80.206 Y153.375
G0 X81.01 Y154.379
G0 X116.051 Y157.546
G0 X116.854 Y158.55
G0 X118.462 Y172.453
G0 X119.265 Y173.457
G0 X135.178 Y176.67
G0 X135.982 Y177.674
G0 X137.59 Y191.576
G0 X138.393 Y192.58
G0 X154.306 Y195.794
G0 X156.712 Y198.495
G0 X156.718 Y210.7
G0 X157.52 Y211.704
G0 X179.948 Y214.976
;TYPE:WALL-INNER
G1 F1500 E234.34979
G1 F1200 X180.623 Y214.976 E234.41714
G1 X180.926 Y214.976 E234.44738
G1 X291.08 Y214.976 E245.43859
G1 X291.448 Y214.976 E245.47531
G1 X291.473 Y214.976 E245.4778
G1 X291.473 Y214.722 E245.49195
G1 X291.473 Y213.972 E245.549
G1 X292.277 Y213.972 E245.62004
G1 X292.277 Y213.89
G1 X292.277 Y213.761 E245.63291
G1 X292.277 Y136.388 E253.35322
G1 X292.277 Y136.201 E253.37188
G1 X292.233 Y136.201 E253.37627
G1 X291.473 Y136.201 E253.4521
G1 X291.473 Y135.227 E253.54929
G1 X291.473 Y135.197 E253.55228
G1 X291.397 Y135.197
G1 X291.232 Y135.197 E253.56875
G1 X192.505 Y135.197 E263.41977
G1 X192.505 Y136.201 E263.51995
G1 X191.701 Y136.201 E263.60017
G1 X191.701 Y154.274 E265.4035
G1 X187.047 Y154.274 E265.86788
G1 X187.047 Y136.201 E267.67121
G1 X186.244 Y136.201 E267.75133
G1 X186.244 Y135.197 E267.85151
G1 X180.804 Y135.197 E268.39432
G1 X180.572 Y135.197 E268.41747
G1 X179.803 Y135.197 E268.4942
G1 X180.572 Y134.275 E268.55891
G1 X180.682 Y134.071 E268.57973
G1 X181.198 Y133.119 E268.68778
G1 X181.593 Y131.857 E268.81973
G1 X181.727 Y130.554 E268.95043
G1 X181.637 Y129.501 E269.05588
G1 X181.727 Y129.501
G1 X290.297 Y129.501 E279.88904
G1 X290.395 Y129.501 E279.89882
G1 X290.297 Y130.453 E279.9651
G1 X290.409 Y131.766 E280.09658
G1 X290.791 Y133.034 E280.22872
G1 X291.321 Y134.053 E280.34333
G1 X291.397 Y134.199 E280.35857
G1 X291.915 Y134.836 E280.42547
G1 X292.233 Y135.227 E280.46403
G1 X292.737 Y135.644 E280.51925
G1 X293.244 Y136.064 E280.57527
G1 X293.408 Y136.153 E280.59389
G1 X294.395 Y136.69 E280.70601
G1 X295.658 Y137.085 E280.83805
G1 X296.963 Y137.219 E280.96895
G1 X297.644 Y137.16 E281.03715
G1 X298.277 Y137.106 E281.10054
G1 X298.31 Y137.096 E281.10399
G1 X298.31 Y137.731 E281.14466
G1 X298.31 Y212.252 E288.5804
G1 X298.31 Y212.253 E288.5805
G1 X298.31 Y212.915 E288.64655
G1 X297.651 Y212.849 E288.68816
G1 X297.063 Y212.789 E288.74713
G1 X295.749 Y212.901 E288.87872
G1 X294.478 Y213.283 E289.01114
G1 X293.433 Y213.831 E289.12888
G1 X293.319 Y213.89 E289.14097
G1 X292.65 Y214.432 E289.21236
G1 X292.291 Y214.722 E289.24101
G1 X291.832 Y215.274 E289.29113
G1 X291.448 Y215.736 E289.3345
G1 X291.273 Y216.059 E289.36539
G1 X290.822 Y216.892 E289.4599
G1 X290.431 Y218.153 E289.59164
G1 X290.297 Y219.453 E289.72204
G1 X290.386 Y220.499 E289.82679
G1 X290.297 Y220.499
G1 X181.727 Y220.499 E300.65995
G1 X181.63 Y220.499 E300.66962
G1 X181.727 Y219.554 E300.73524
G1 X181.614 Y218.238 E300.86704
G1 X181.232 Y216.969 E300.99927
G1 X180.763 Y216.076 E301.09991
G1 X180.623 Y215.808 E301.12312
G1 X179.948 Y214.976 E301.17837
G0 F6000 X178.935 Y215.632
G1 F1200 X178.141 Y214.97 E301.28152
G1 X178.106 Y214.941 E301.28605
G1 X177.155 Y214.424 E301.39406
G1 X176.118 Y214.102 E301.50241
G1 X175.053 Y213.994 E301.60922
G1 X173.975 Y214.086 E301.71717
G1 X172.933 Y214.399 E301.82573
G1 X171.981 Y214.898 E301.93298
G1 X171.898 Y214.965 E301.94363
G1 X171.138 Y215.58 E302.04118
G1 X170.447 Y216.412 E302.14909
G1 X169.933 Y217.36 E302.25669
G1 X169.612 Y218.395 E302.36482
G1 X169.502 Y219.463 E302.47195
G1 X169.593 Y220.52 E302.57781
G1 X169.594 Y220.54 E302.5798
G1 X169.907 Y221.58 E302.68817
G1 X169.969 Y221.699 E302.70156
G1 X169.907 Y221.699
G1 X169.594 Y221.699 E302.70453
G1 X169.573 Y221.699 E302.7066
G1 X58.475 Y221.699 E313.792
G1 X58.412 Y221.699 E313.79829
G1 X58.088 Y221.699 E313.83062
G1 X58.061 Y221.699 E313.83331
G1 X58.088 Y221.65
G1 X58.412 Y220.614 E313.9095
G1 X58.418 Y220.552 E313.9155
G1 X58.522 Y219.544 E314.01661
G1 X58.429 Y218.465 E314.12467
G1 X58.116 Y217.425 E314.23304
G1 X57.616 Y216.471 E314.34051
G1 X56.935 Y215.632 E314.44833
G1 X56.106 Y214.941 E314.55602
G1 X55.155 Y214.424 E314.66403
G1 X54.118 Y214.102 E314.77237
G1 X53.053 Y213.994 E314.87918
G1 X51.975 Y214.086 E314.98714
G1 X51.419 Y214.253 E315.04506
G1 X50.933 Y214.399 E315.0957
G1 X50.49 Y214.631 E315.1456
G1 X50.49 Y214.399
G1 X50.49 Y213.891 E315.18348
G1 X50.49 Y136.14 E322.94151
G1 X50.49 Y135.58 E322.99738
G1 X50.49 Y135.376 E323.01774
G1 X50.865 Y135.58 E323.03697
G1 X51.399 Y135.747 E323.07732
G1 X51.901 Y135.904 E323.1298
G1 X52.973 Y136.014 E323.23733
G1 X54.05 Y135.921 E323.34519
G1 X55.09 Y135.608 E323.45356
G1 X56.046 Y135.108 E323.56121
G1 X56.883 Y134.427 E323.66888
G1 X57.574 Y133.598 E323.77656
G1 X58.088 Y132.65 E323.88416
G1 X58.412 Y131.614 E323.99247
G1 X58.522 Y130.544 E324.0998
G1 X58.43 Y129.483 E324.20607
G1 X58.429 Y129.465 E324.20786
G1 X58.116 Y128.425 E324.31623
G1 X58.051 Y128.301 E324.3302
G1 X58.116 Y128.301
G1 X58.429 Y128.301 E324.33342
G1 X58.448 Y128.301 E324.3353
G1 X169.554 Y128.301 E335.4215
G1 X169.612 Y128.301 E335.42729
G1 X169.933 Y128.301 E335.45932
G1 X169.965 Y128.301 E335.46251
G1 X169.933 Y128.36
G1 X169.612 Y129.395 E335.53909
G1 X169.607 Y129.452 E335.54462
G1 X169.502 Y130.463 E335.64604
G1 X169.594 Y131.54 E335.7539
G1 X169.907 Y132.58 E335.86226
G1 X170.405 Y133.536 E335.96982
G1 X171.09 Y134.378 E336.07813
G1 X171.92 Y135.066 E336.1857
G1 X172.206 Y135.222 E336.2182
G1 X172.865 Y135.58 E336.29304
G1 X173.901 Y135.904 E336.40135
G1 X174.973 Y136.014 E336.50887
G1 X176.05 Y135.921 E336.61674
G1 X177.09 Y135.608 E336.7251
G1 X177.829 Y135.222 E336.8083
G1 X178.046 Y135.108 E336.83275
G1 X178.883 Y134.427 E336.94042
G1 X179.574 Y133.598 E337.04811
G1 X180.088 Y132.65 E337.15571
G1 X180.412 Y131.614 E337.26402
G1 X180.522 Y130.544 E337.37135
G1 X180.43 Y129.483 E337.47761
G1 X180.429 Y129.465 E337.47941
G1 X180.116 Y128.425 E337.58778
G1 X180.051 Y128.301 E337.60175
G1 X180.116 Y128.301
G1 X180.429 Y128.301 E337.60497
G1 X180.448 Y128.301 E337.60684
