;FLAVOR:Marlin
;TIME:341
;Filament used: 0.585697m
;Layer height: 0.5
;MINX:146
;MINY:146
;MINZ:0.2
;MAXX:204
;MAXY:204
;MAXZ:3.7
;Generated with Cura_SteamEngine 4.4.1
M140 S55
M105
M190 S55
M104 S200
M105
M109 S200
M82 ;absolute extrusion mode
M201 X500.00 Y500.00 Z100.00 E5000.00 ;Setup machine max acceleration
M203 X500.00 Y500.00 Z10.00 E50.00 ;Setup machine max feedrate
M204 P500.00 R1000.00 T500.00 ;Setup Print/Retract/Travel acceleration
M205 X8.00 Y8.00 Z0.40 E5.00 ;Setup Jerk
M220 S100 ;Reset Feedrate
M221 S100 ;Reset Flowrate

G28 ;Home
M420 S1 Z2 ;Enable ABL using saved Mesh and Fade Height

G92 E0 ;Reset Extruder
G1 Z2.0 F3000 ;Move Z Axis up
G1 X10.1 Y20 Z0.28 F5000.0 ;Move to start position
G1 X10.1 Y200.0 Z0.28 F1500.0 E15 ;Draw the first line
G1 X10.4 Y200.0 Z0.28 F5000.0 ;Move to side a little
G1 X10.4 Y20 Z0.28 F1500.0 E30 ;Draw the second line
G92 E0 ;Reset Extruder
G1 Z2.0 F3000 ;Move Z Axis up

G92 E0
G92 E0
G1 F1500 E-6.5
;LAYER_COUNT:8
;LAYER:0
M107
G0 F6000 X149.934 Y149.701 Z0.2
;TYPE:SKIRT
G1 F1500 E0
G1 F1200 X150.691 Y149.018 E0.10173
G1 X151.5 Y148.397 E0.2035
G1 X152.354 Y147.841 E0.30518
G1 X153.25 Y147.354 E0.40693
G1 X154.181 Y146.939 E0.50864
G1 X155.142 Y146.597 E0.61042
G1 X156.127 Y146.333 E0.71217
G1 X157.129 Y146.146 E0.81388
G1 X158.645 Y146.014 E0.96572
G1 X158.966 Y146.005 E0.99776
G1 X159.33 Y146 E1.03408
G1 X174.293 Y146 E2.5271
G1 X174.478 Y146.001 E2.54556
G1 X175.179 Y146.011 E2.61551
G1 X176.198 Y146.066 E2.71733
G1 X177.208 Y146.2 E2.819
G1 X178.205 Y146.413 E2.92072
G1 X179.183 Y146.703 E3.02251
G1 X180.134 Y147.069 E3.12418
G1 X181.054 Y147.509 E3.22594
G1 X181.937 Y148.019 E3.32769
G1 X182.777 Y148.597 E3.42943
G1 X183.569 Y149.239 E3.53116
G1 X184.309 Y149.941 E3.63293
G1 X185.092 Y150.823 E3.75061
G1 X185.539 Y151.374 E3.82141
G1 X187.154 Y153.316 E4.07343
G1 X188.781 Y155.164 E4.31911
G1 X190.482 Y156.988 E4.56797
G1 X192.196 Y158.725 E4.81146
G1 X193.965 Y160.419 E5.05585
G1 X195.795 Y162.075 E5.30211
G1 X197.693 Y163.698 E5.55129
G1 X198.593 Y164.423 E5.66661
G1 X198.749 Y164.55 E5.68668
G1 X199.294 Y165.003 E5.75739
G1 X200.052 Y165.685 E5.85914
G1 X200.754 Y166.424 E5.96084
G1 X201.396 Y167.216 E6.06257
G1 X201.974 Y168.056 E6.16431
G1 X202.484 Y168.939 E6.26606
G1 X202.924 Y169.858 E6.36772
G1 X203.29 Y170.81 E6.46949
G1 X203.581 Y171.787 E6.57121
G1 X203.794 Y172.784 E6.67293
G1 X203.928 Y173.795 E6.77469
G1 X203.969 Y174.37 E6.83221
G1 X203.985 Y174.7 E6.86518
G1 X204 Y175.33 E6.92806
G1 X204 Y190.264 E8.41818
G1 X203.999 Y190.425 E8.43425
G1 X203.99 Y191.152 E8.50679
G1 X203.937 Y192.17 E8.60851
G1 X203.805 Y193.181 E8.71024
G1 X203.594 Y194.179 E8.81202
G1 X203.306 Y195.157 E8.91375
G1 X202.941 Y196.109 E9.01548
G1 X202.503 Y197.03 E9.11724
G1 X201.995 Y197.913 E9.21889
G1 X201.418 Y198.754 E9.32066
G1 X200.778 Y199.548 E9.42242
G1 X200.077 Y200.288 E9.52412
G1 X199.321 Y200.972 E9.62585
G1 X198.513 Y201.594 E9.72759
G1 X197.659 Y202.151 E9.82933
G1 X196.763 Y202.639 E9.93113
G1 X195.833 Y203.056 E10.03283
G1 X194.872 Y203.398 E10.13461
G1 X193.888 Y203.664 E10.23632
G1 X192.886 Y203.852 E10.33804
G1 X191.872 Y203.961 E10.4398
G1 X191.355 Y203.986 E10.49145
G1 X191.034 Y203.995 E10.52349
G1 X190.67 Y204 E10.55982
G1 X175.707 Y204 E12.05283
G1 X175.522 Y203.999 E12.07129
G1 X174.82 Y203.989 E12.14134
G1 X173.802 Y203.934 E12.24307
G1 X172.791 Y203.8 E12.34483
G1 X171.794 Y203.587 E12.44655
G1 X170.816 Y203.297 E12.54834
G1 X169.865 Y202.931 E12.65001
G1 X168.945 Y202.491 E12.75177
G1 X168.062 Y201.981 E12.85352
G1 X167.222 Y201.403 E12.95526
G1 X166.43 Y200.761 E13.05699
G1 X165.691 Y200.059 E13.15869
G1 X164.898 Y199.167 E13.27778
G1 X164.415 Y198.57 E13.3544
G1 X162.846 Y196.684 E13.5992
G1 X161.202 Y194.817 E13.84742
G1 X159.535 Y193.029 E14.09133
G1 X157.804 Y191.275 E14.33722
G1 X156.034 Y189.581 E14.58169
G1 X154.205 Y187.925 E14.82788
G1 X152.307 Y186.302 E15.07706
G1 X151.407 Y185.577 E15.19237
G1 X151.248 Y185.447 E15.21287
G1 X150.701 Y184.992 E15.28386
G1 X149.943 Y184.31 E15.3856
G1 X149.241 Y183.571 E15.48731
G1 X148.599 Y182.778 E15.58911
G1 X148.022 Y181.938 E15.6908
G1 X147.511 Y181.055 E15.79259
G1 X147.072 Y180.135 E15.89431
G1 X146.706 Y179.183 E15.99607
G1 X146.416 Y178.206 E16.09776
G1 X146.203 Y177.209 E16.19949
G1 X146.07 Y176.198 E16.30124
G1 X146.026 Y175.552 E16.36584
G1 X146.012 Y175.224 E16.3986
G1 X146 Y174.67 E16.45389
G1 X146 Y159.674 E17.9502
G1 X146.001 Y159.498 E17.96776
G1 X146.01 Y158.833 E18.03412
G1 X146.064 Y157.815 E18.13584
G1 X146.197 Y156.804 E18.23759
G1 X146.41 Y155.807 E18.33931
G1 X146.699 Y154.829 E18.44107
G1 X147.065 Y153.877 E18.54284
G1 X147.504 Y152.957 E18.64455
G1 X148.013 Y152.074 E18.74625
G1 X148.591 Y151.234 E18.84799
G1 X149.232 Y150.441 E18.94973
G1 X149.934 Y149.701 E19.05151
G0 F6000 X151.106 Y150.246
G1 F1200 X151.854 Y149.626 E19.14845
G1 X152.65 Y149.069 E19.24539
G1 X153.489 Y148.58 E19.34229
G1 X154.366 Y148.161 E19.43927
G1 X155.274 Y147.816 E19.53619
G1 X156.207 Y147.547 E19.63308
G1 X157.159 Y147.355 E19.72998
G1 X158.124 Y147.242 E19.82693
G1 X158.678 Y147.214 E19.88228
G1 X158.999 Y147.205 E19.91432
G1 X159.33 Y147.2 E19.94735
G1 X174.293 Y147.2 E21.44036
G1 X174.461 Y147.201 E21.45713
G1 X175.162 Y147.211 E21.52708
G1 X176.132 Y147.265 E21.62402
G1 X177.094 Y147.398 E21.72092
G1 X178.042 Y147.611 E21.81787
G1 X178.97 Y147.9 E21.91485
G1 X179.87 Y148.265 E22.01176
G1 X180.737 Y148.702 E22.10864
G1 X181.566 Y149.209 E22.2056
G1 X182.35 Y149.783 E22.30255
G1 X183.084 Y150.419 E22.39946
G1 X183.763 Y151.114 E22.49641
G1 X184.16 Y151.579 E22.55741
G1 X184.574 Y152.09 E22.62304
G1 X186.247 Y154.102 E22.88413
G1 X187.904 Y155.982 E23.13418
G1 X189.616 Y157.818 E23.38466
G1 X191.36 Y159.587 E23.63253
G1 X193.142 Y161.292 E23.87862
G1 X195.003 Y162.977 E24.12912
G1 X196.902 Y164.601 E24.37844
G1 X197.841 Y165.357 E24.49872
G1 X197.982 Y165.472 E24.51688
G1 X198.527 Y165.925 E24.58759
G1 X199.248 Y166.577 E24.68459
G1 X199.912 Y167.285 E24.78144
G1 X200.517 Y168.045 E24.87837
G1 X201.056 Y168.853 E24.97528
G1 X201.528 Y169.702 E25.07221
G1 X201.928 Y170.587 E25.16911
G1 X202.254 Y171.503 E25.26613
G1 X202.503 Y172.441 E25.36296
G1 X202.675 Y173.398 E25.45998
G1 X202.77 Y174.429 E25.56329
G1 X202.786 Y174.759 E25.59626
G1 X202.8 Y175.33 E25.65325
G1 X202.8 Y190.264 E27.14337
G1 X202.799 Y190.41 E27.15794
G1 X202.79 Y191.137 E27.23048
G1 X202.738 Y192.107 E27.32741
G1 X202.606 Y193.07 E27.4244
G1 X202.396 Y194.018 E27.52128
G1 X202.109 Y194.946 E27.61821
G1 X201.746 Y195.847 E27.71513
G1 X201.31 Y196.715 E27.81205
G1 X200.804 Y197.544 E27.90896
G1 X200.232 Y198.329 E28.00588
G1 X199.597 Y199.064 E28.1028
G1 X198.904 Y199.745 E28.19974
G1 X198.157 Y200.366 E28.29667
G1 X197.361 Y200.924 E28.39367
G1 X196.523 Y201.414 E28.49053
G1 X195.647 Y201.834 E28.58746
G1 X194.739 Y202.18 E28.68442
G1 X193.806 Y202.45 E28.78133
G1 X192.854 Y202.643 E28.87826
G1 X191.889 Y202.757 E28.97521
G1 X191.322 Y202.786 E29.03186
G1 X191.001 Y202.795 E29.06391
G1 X190.67 Y202.8 E29.09694
G1 X175.707 Y202.8 E30.58995
G1 X175.539 Y202.799 E30.60671
G1 X174.837 Y202.789 E30.67677
G1 X173.867 Y202.735 E30.7737
G1 X172.905 Y202.602 E30.87061
G1 X171.957 Y202.39 E30.96753
G1 X171.03 Y202.1 E31.06445
G1 X170.129 Y201.736 E31.16141
G1 X169.262 Y201.298 E31.25834
G1 X168.434 Y200.791 E31.35521
G1 X167.65 Y200.217 E31.45216
G1 X166.916 Y199.581 E31.54907
G1 X166.236 Y198.886 E31.64609
G1 X165.831 Y198.412 E31.7083
G1 X165.394 Y197.872 E31.77762
G1 X163.753 Y195.898 E32.03375
G1 X162.097 Y194.018 E32.28374
G1 X160.383 Y192.181 E32.53443
G1 X158.64 Y190.413 E32.78216
G1 X156.859 Y188.708 E33.02817
G1 X154.996 Y187.022 E33.27888
G1 X153.098 Y185.399 E33.52806
G1 X152.159 Y184.643 E33.64835
G1 X152.015 Y184.525 E33.66693
G1 X151.468 Y184.07 E33.73792
G1 X150.747 Y183.418 E33.83492
G1 X150.083 Y182.71 E33.93177
G1 X149.479 Y181.949 E34.02871
G1 X148.939 Y181.141 E34.12568
G1 X148.468 Y180.292 E34.22256
G1 X148.068 Y179.407 E34.31946
G1 X147.743 Y178.491 E34.41645
G1 X147.494 Y177.552 E34.51338
G1 X147.323 Y176.596 E34.61028
G1 X147.225 Y175.501 E34.71998
G1 X147.211 Y175.173 E34.75274
G1 X147.2 Y174.67 E34.80294
G1 X147.2 Y159.674 E36.29924
G1 X147.201 Y159.514 E36.31521
G1 X147.21 Y158.849 E36.38157
G1 X147.263 Y157.879 E36.4785
G1 X147.396 Y156.917 E36.5754
G1 X147.607 Y155.969 E36.67231
G1 X147.896 Y155.041 E36.76929
G1 X148.26 Y154.141 E36.86616
G1 X148.697 Y153.273 E36.96313
G1 X149.204 Y152.444 E37.06009
G1 X149.777 Y151.66 E37.15698
G1 X150.412 Y150.926 E37.25382
G1 X151.106 Y150.246 E37.35077
G0 F6000 X151.589 Y151.439
G1 F1200 X152.274 Y150.823 E37.44269
G1 X153.01 Y150.27 E37.53455
G1 X153.791 Y149.782 E37.62644
G1 X154.611 Y149.364 E37.71828
G1 X155.465 Y149.019 E37.81018
G1 X156.345 Y148.749 E37.90203
G1 X157.245 Y148.557 E37.99385
G1 X158.159 Y148.443 E38.08576
G1 X158.712 Y148.413 E38.14102
G1 X159.033 Y148.404 E38.17306
G1 X159.33 Y148.4 E38.2027
G1 X174.293 Y148.4 E39.69571
G1 X174.444 Y148.401 E39.71078
G1 X175.145 Y148.411 E39.78073
G1 X176.064 Y148.464 E39.87258
G1 X176.975 Y148.597 E39.96445
G1 X177.871 Y148.808 E40.0563
G1 X178.746 Y149.096 E40.14821
G1 X179.592 Y149.459 E40.24007
G1 X180.403 Y149.894 E40.3319
G1 X181.174 Y150.398 E40.42381
G1 X181.898 Y150.967 E40.51569
G1 X182.57 Y151.596 E40.60753
G1 X183.228 Y152.335 E40.70626
G1 X183.628 Y152.829 E40.76968
G1 X185.354 Y154.905 E41.03907
G1 X187.008 Y156.782 E41.2887
G1 X188.715 Y158.613 E41.53848
G1 X190.524 Y160.447 E41.79552
G1 X192.336 Y162.182 E42.04583
G1 X194.195 Y163.864 E42.29598
G1 X196.164 Y165.548 E42.55451
G1 X197.088 Y166.292 E42.67288
G1 X197.215 Y166.395 E42.68919
G1 X197.76 Y166.848 E42.7599
G1 X198.441 Y167.467 E42.85173
G1 X199.067 Y168.142 E42.94359
G1 X199.632 Y168.87 E43.03554
G1 X200.131 Y169.643 E43.12734
G1 X200.561 Y170.457 E43.2192
G1 X200.919 Y171.305 E43.31105
G1 X201.202 Y172.181 E43.4029
G1 X201.408 Y173.079 E43.49483
G1 X201.536 Y173.99 E43.58662
G1 X201.572 Y174.487 E43.63634
G1 X201.588 Y174.817 E43.66931
G1 X201.6 Y175.33 E43.72051
G1 X201.6 Y190.264 E45.21063
G1 X201.599 Y190.395 E45.2237
G1 X201.59 Y191.122 E45.29625
G1 X201.539 Y192.041 E45.38809
G1 X201.408 Y192.953 E45.48002
G1 X201.198 Y193.849 E45.57185
G1 X200.912 Y194.724 E45.6637
G1 X200.551 Y195.571 E45.75557
G1 X200.117 Y196.383 E45.84744
G1 X199.615 Y197.155 E45.93933
G1 X199.047 Y197.88 E46.03122
G1 X198.419 Y198.553 E46.12307
G1 X197.735 Y199.169 E46.21492
G1 X197 Y199.723 E46.30676
G1 X196.22 Y200.212 E46.39862
G1 X195.4 Y200.631 E46.4905
G1 X194.547 Y200.977 E46.58235
G1 X193.667 Y201.248 E46.67422
G1 X192.767 Y201.441 E46.76607
G1 X191.853 Y201.556 E46.85798
G1 X191.288 Y201.587 E46.91445
G1 X190.967 Y201.596 E46.94649
G1 X190.67 Y201.6 E46.97612
G1 X175.707 Y201.6 E48.46914
G1 X175.556 Y201.599 E48.48421
G1 X174.854 Y201.589 E48.55426
G1 X173.935 Y201.536 E48.64611
G1 X173.024 Y201.403 E48.73797
G1 X172.128 Y201.192 E48.82982
G1 X171.253 Y200.904 E48.92174
G1 X170.407 Y200.541 E49.01359
G1 X169.596 Y200.106 E49.10542
G1 X168.825 Y199.602 E49.19733
G1 X168.101 Y199.034 E49.28915
G1 X167.429 Y198.404 E49.38106
G1 X166.764 Y197.657 E49.48085
G1 X166.328 Y197.118 E49.55003
G1 X164.646 Y195.095 E49.81254
G1 X162.992 Y193.218 E50.06217
G1 X161.284 Y191.386 E50.31209
G1 X159.493 Y189.57 E50.56659
G1 X157.645 Y187.801 E50.82185
G1 X155.805 Y186.136 E51.06945
G1 X153.836 Y184.452 E51.32797
G1 X152.912 Y183.708 E51.44634
G1 X152.782 Y183.602 E51.46308
G1 X152.235 Y183.147 E51.53407
G1 X151.554 Y182.528 E51.6259
G1 X150.929 Y181.853 E51.71769
G1 X150.364 Y181.125 E51.80964
G1 X149.865 Y180.351 E51.90153
G1 X149.435 Y179.537 E51.99339
G1 X149.077 Y178.689 E52.08523
G1 X148.795 Y177.813 E52.17706
G1 X148.589 Y176.916 E52.26889
G1 X148.462 Y176.004 E52.36077
G1 X148.424 Y175.45 E52.41618
G1 X148.41 Y175.122 E52.44893
G1 X148.4 Y174.67 E52.49405
G1 X148.4 Y159.674 E53.99035
G1 X148.401 Y159.531 E54.00462
G1 X148.41 Y158.866 E54.07098
G1 X148.462 Y157.946 E54.16293
G1 X148.594 Y157.035 E54.25478
G1 X148.805 Y156.139 E54.34662
G1 X149.092 Y155.264 E54.43851
G1 X149.455 Y154.418 E54.53036
G1 X149.889 Y153.606 E54.62223
G1 X150.392 Y152.835 E54.71409
G1 X150.961 Y152.111 E54.80597
G1 X151.589 Y151.439 E54.89774
G1 F1500 E48.39774
;MESH:test_button_dims.stl
G0 F6000 X174.923 Y158.339
G0 X175.661 Y159.077
G0 X175.653 Y174.347
G0 X175.914 Y175.914
G0 X184.253 Y176.705
G0 X185.456 Y177.072
G0 X185.77 Y177.238
G0 X189.2 Y179.203
;TYPE:WALL-INNER
G1 F1500 E54.89774
G1 F1200 X189.063 Y178.973 E54.92446
G1 X188.639 Y178.398 E54.99574
G1 X188.161 Y177.867 E55.06703
G1 X187.62 Y177.374 E55.14006
G1 X187.043 Y176.947 E55.21169
G1 X186.798 Y176.8 E55.2402
G1 X187.043 Y176.8
G1 X187.62 Y176.8 E55.25485
G1 X188.161 Y176.8 E55.29011
G1 X189.2 Y176.8 E55.39378
G1 X189.2 Y177.867 E55.49153
G1 X189.2 Y178.398 E55.52519
G1 X189.2 Y178.973 E55.53923
G1 X189.2 Y179.203
G0 F6000 X189.416 Y183.018
G0 X189.2 Y186.796
G1 F1200 X189.2 Y187.059 E55.56548
G1 X189.2 Y187.631 E55.62255
G1 X189.2 Y188.148 E55.67414
G1 X189.2 Y189.2 E55.77911
G1 X188.147 Y189.2 E55.88417
G1 X187.618 Y189.2 E55.93696
G1 X187.043 Y189.2 E55.99433
G1 X186.798 Y189.2 E56.01878
G1 X187.043 Y189.053 E56.0233
G1 X187.618 Y188.627 E56.05186
G1 X188.147 Y188.148 E56.10438
G1 X188.616 Y187.631 E56.15606
G1 X189.042 Y187.059 E56.18518
G1 X189.2 Y186.796 E56.19014
G0 F6000 X186.025 Y188.66
G0 X184.863 Y189.141
G0 X183.628 Y189.387
G0 X182.917 Y189.387
G0 X179.202 Y189.2
G1 F1200 X178.957 Y189.2 E56.21459
G1 X178.38 Y189.2 E56.27216
G1 X177.839 Y189.2 E56.32614
G1 X176.8 Y189.2 E56.42981
G1 X176.8 Y188.133 E56.53628
G1 X176.8 Y187.602 E56.58926
G1 X176.8 Y187.027 E56.64664
G1 X176.8 Y186.797 E56.66959
G1 X176.937 Y187.027 E56.67371
G1 X177.361 Y187.602 E56.70164
G1 X177.839 Y188.133 E56.75359
G1 X178.38 Y188.626 E56.80787
G1 X178.957 Y189.053 E56.83653
G1 X179.202 Y189.2 E56.84105
G0 F6000 X177.333 Y186.01
G0 X176.854 Y184.846
G0 X176.611 Y183.61
G0 X176.616 Y182.356
G0 X176.866 Y181.121
G0 X177.256 Y180.182
G0 X179.202 Y176.8
G1 F1200 X178.957 Y176.947 E56.86956
G1 X178.382 Y177.373 E56.94097
G1 X177.853 Y177.852 E57.01217
G1 X177.384 Y178.369 E57.08182
G1 X176.958 Y178.941 E57.15299
G1 X176.8 Y179.204 E57.1836
G1 X176.8 Y178.941 E57.18426
G1 X176.8 Y178.369 E57.1993
G1 X176.8 Y177.852 E57.23292
G1 X176.8 Y176.8 E57.33788
G1 X177.853 Y176.8 E57.43454
G1 X178.382 Y176.8 E57.46866
G1 X178.957 Y176.8 E57.48323
G1 X179.202 Y176.8
G1 F1500 E50.98323
G0 F6000 X177.349 Y179.961
G0 X176.866 Y181.121
G0 X176.616 Y182.356
G0 X176.611 Y183.61
G0 X176.854 Y184.846
G0 X177.333 Y186.01
G0 X178.028 Y187.058
G0 X178.927 Y187.96
G0 X179.975 Y188.66
G0 X180.915 Y189.048
G0 X182.346 Y189.444
G0 X182.404 Y189.049
;TYPE:WALL-OUTER
G1 F1500 E57.48323
G1 F1200 X183 Y189.078 E57.54277
G1 X183.596 Y189.049 E57.60231
G1 X184.187 Y188.961 E57.66193
G1 X184.765 Y188.816 E57.72139
G1 X185.326 Y188.615 E57.78085
G1 X185.865 Y188.36 E57.84035
G1 X186.376 Y188.054 E57.89978
G1 X186.856 Y187.698 E57.95941
G1 X187.298 Y187.298 E58.01889
G1 X187.688 Y186.868 E58.07681
G1 X188.044 Y186.39 E58.13628
G1 X188.351 Y185.879 E58.19576
G1 X188.608 Y185.34 E58.25535
G1 X188.809 Y184.78 E58.31471
G1 X188.957 Y184.202 E58.37425
G1 X189.046 Y183.611 E58.43388
G1 X189.076 Y183.017 E58.49323
G1 X189.051 Y182.421 E58.55275
G1 X188.964 Y181.829 E58.61245
G1 X188.82 Y181.251 E58.67189
G1 X188.622 Y180.69 E58.73125
G1 X188.367 Y180.149 E58.79093
G1 X188.062 Y179.638 E58.85031
G1 X187.708 Y179.157 E58.9099
G1 X187.309 Y178.714 E58.96939
G1 X186.857 Y178.302 E59.03041
G1 X186.376 Y177.946 E59.09012
G1 X185.865 Y177.64 E59.14955
G1 X185.326 Y177.385 E59.20905
G1 X184.765 Y177.184 E59.26851
G1 X184.187 Y177.039 E59.32797
G1 X183.596 Y176.951 E59.38759
G1 X183 Y176.922 E59.44713
G1 X182.404 Y176.951 E59.50667
G1 X181.813 Y177.039 E59.56629
G1 X181.235 Y177.184 E59.62575
G1 X180.674 Y177.385 E59.68521
G1 X180.135 Y177.64 E59.74471
G1 X179.624 Y177.946 E59.80414
G1 X179.144 Y178.302 E59.86377
G1 X178.702 Y178.702 E59.92325
G1 X178.312 Y179.132 E59.98117
