;FLAVOR:Marlin
;TIME:2903
;Filament used: 6.11612m
;Layer height: 0.5
;MINX:135.432
;MINY:132.92
;MINZ:0.2
;MAXX:214.568
;MAXY:217.08
;MAXZ:8.7
;Generated with Cura_SteamEngine 4.4.1
M140 S55
M105
M190 S55
M104 S200
M105
M109 S200
M82 ;absolute extrusion mode
M201 X500.00 Y500.00 Z100.00 E5000.00 ;Setup machine max acceleration
M203 X500.00 Y500.00 Z10.00 E50.00 ;Setup machine max feedrate
M204 P500.00 R1000.00 T500.00 ;Setup Print/Retract/Travel acceleration
M205 X8.00 Y8.00 Z0.40 E5.00 ;Setup Jerk
M220 S100 ;Reset Feedrate
M221 S100 ;Reset Flowrate

G28 ;Home
M420 S1 Z2 ;Enable ABL using saved Mesh and Fade Height

G92 E0 ;Reset Extruder
G1 Z2.0 F3000 ;Move Z Axis up
G1 X10.1 Y20 Z0.28 F5000.0 ;Move to start position
G1 X10.1 Y200.0 Z0.28 F1500.0 E15 ;Draw the first line
G1 X10.4 Y200.0 Z0.28 F5000.0 ;Move to side a little
G1 X10.4 Y20 Z0.28 F1500.0 E30 ;Draw the second line
G92 E0 ;Reset Extruder
G1 Z2.0 F3000 ;Move Z Axis up

G92 E0
G92 E0
G1 F1500 E-6.5
;LAYER_COUNT:18
;LAYER:0
M107
G0 F6000 X139.366 Y136.621 Z0.2
;TYPE:SKIRT
G1 F1500 E0
G1 F1200 X140.123 Y135.938 E0.10173
G1 X140.932 Y135.317 E0.2035
G1 X141.786 Y134.761 E0.30518
G1 X142.682 Y134.274 E0.40693
G1 X143.613 Y133.859 E0.50864
G1 X144.574 Y133.517 E0.61042
G1 X145.559 Y133.253 E0.71217
G1 X146.561 Y133.066 E0.81388
G1 X148.077 Y132.934 E0.96572
G1 X148.398 Y132.925 E0.99776
G1 X148.762 Y132.92 E1.03408
G1 X200.861 Y132.92 E6.23254
G1 X201.047 Y132.921 E6.2511
G1 X201.745 Y132.931 E6.32076
G1 X202.763 Y132.986 E6.42248
G1 X203.774 Y133.12 E6.52424
G1 X204.771 Y133.333 E6.62597
G1 X205.749 Y133.624 E6.72778
G1 X206.7 Y133.99 E6.82946
G1 X207.62 Y134.429 E6.93117
G1 X208.503 Y134.94 E7.03297
G1 X209.343 Y135.518 E7.13471
G1 X210.135 Y136.16 E7.23644
G1 X210.874 Y136.862 E7.33814
G1 X211.556 Y137.62 E7.43988
G1 X212.177 Y138.429 E7.54164
G1 X212.732 Y139.284 E7.64335
G1 X213.218 Y140.18 E7.74506
G1 X213.633 Y141.112 E7.84686
G1 X213.974 Y142.073 E7.94861
G1 X214.238 Y143.058 E8.05036
G1 X214.424 Y144.06 E8.15205
G1 X214.554 Y145.565 E8.30277
G1 X214.563 Y145.885 E8.33472
G1 X214.568 Y146.25 E8.37114
G1 X214.568 Y203.344 E14.068
G1 X214.567 Y203.505 E14.08407
G1 X214.558 Y204.232 E14.15661
G1 X214.505 Y205.25 E14.25833
G1 X214.373 Y206.261 E14.36006
G1 X214.162 Y207.259 E14.46184
G1 X213.874 Y208.237 E14.56357
G1 X213.509 Y209.189 E14.66531
G1 X213.071 Y210.11 E14.76707
G1 X212.563 Y210.993 E14.86871
G1 X211.986 Y211.834 E14.97048
G1 X211.346 Y212.628 E15.07224
G1 X210.645 Y213.368 E15.17395
G1 X209.889 Y214.052 E15.27567
G1 X209.081 Y214.674 E15.37742
G1 X208.227 Y215.231 E15.47915
G1 X207.331 Y215.719 E15.58095
G1 X206.401 Y216.136 E15.68265
G1 X205.44 Y216.478 E15.78443
G1 X204.456 Y216.744 E15.88614
G1 X203.454 Y216.932 E15.98786
G1 X202.44 Y217.041 E16.08963
G1 X201.923 Y217.066 E16.14127
G1 X201.602 Y217.075 E16.17331
G1 X201.238 Y217.08 E16.20964
G1 X149.139 Y217.08 E21.4081
G1 X148.971 Y217.079 E21.42486
G1 X148.273 Y217.07 E21.49451
G1 X147.255 Y217.017 E21.59623
G1 X146.244 Y216.884 E21.69797
G1 X145.247 Y216.672 E21.79968
G1 X144.269 Y216.383 E21.90144
G1 X143.317 Y216.019 E22.00313
G1 X142.396 Y215.58 E22.10494
G1 X141.513 Y215.071 E22.20663
G1 X140.672 Y214.494 E22.3084
G1 X139.879 Y213.853 E22.41014
G1 X139.139 Y213.152 E22.51185
G1 X138.456 Y212.395 E22.61358
G1 X137.834 Y211.587 E22.71533
G1 X137.278 Y210.733 E22.81701
G1 X136.79 Y209.837 E22.91881
G1 X136.374 Y208.907 E23.02047
G1 X136.032 Y207.946 E23.12225
G1 X135.766 Y206.962 E23.22396
G1 X135.579 Y205.959 E23.32576
G1 X135.47 Y204.946 E23.42742
G1 X135.446 Y204.422 E23.47976
G1 X135.437 Y204.089 E23.513
G1 X135.432 Y203.738 E23.54803
G1 X135.432 Y146.594 E29.24988
G1 X135.433 Y146.418 E29.26744
G1 X135.442 Y145.753 E29.3338
G1 X135.496 Y144.735 E29.43552
G1 X135.629 Y143.724 E29.53727
G1 X135.842 Y142.727 E29.63899
G1 X136.131 Y141.749 E29.74075
G1 X136.497 Y140.797 E29.84252
G1 X136.936 Y139.877 E29.94423
G1 X137.445 Y138.994 E30.04593
G1 X138.023 Y138.154 E30.14767
G1 X138.664 Y137.361 E30.24941
G1 X139.366 Y136.621 E30.35119
G0 F6000 X140.538 Y137.166
G1 F1200 X141.286 Y136.546 E30.44813
G1 X142.082 Y135.989 E30.54507
G1 X142.921 Y135.5 E30.64197
G1 X143.798 Y135.081 E30.73895
G1 X144.706 Y134.736 E30.83587
G1 X145.639 Y134.467 E30.93276
G1 X146.591 Y134.275 E31.02966
G1 X147.556 Y134.162 E31.12661
G1 X148.11 Y134.134 E31.18195
G1 X148.431 Y134.125 E31.214
G1 X148.762 Y134.12 E31.24703
G1 X200.861 Y134.12 E36.44549
G1 X201.03 Y134.121 E36.46235
G1 X201.728 Y134.131 E36.532
G1 X202.698 Y134.185 E36.62894
G1 X203.66 Y134.319 E36.72586
G1 X204.608 Y134.531 E36.82278
G1 X205.535 Y134.82 E36.91967
G1 X206.436 Y135.185 E37.01667
G1 X207.303 Y135.622 E37.11355
G1 X208.131 Y136.13 E37.21048
G1 X208.915 Y136.704 E37.30743
G1 X209.649 Y137.34 E37.40434
G1 X210.328 Y138.034 E37.50122
G1 X210.948 Y138.782 E37.59816
G1 X211.504 Y139.579 E37.69512
G1 X211.993 Y140.418 E37.79202
G1 X212.411 Y141.295 E37.88896
G1 X212.755 Y142.204 E37.98594
G1 X213.024 Y143.137 E38.08282
G1 X213.215 Y144.09 E38.1798
G1 X213.326 Y145.054 E38.27663
G1 X213.354 Y145.598 E38.33098
G1 X213.363 Y145.918 E38.36292
G1 X213.368 Y146.25 E38.39605
G1 X213.368 Y203.344 E44.09292
G1 X213.367 Y203.49 E44.10748
G1 X213.358 Y204.217 E44.18003
G1 X213.306 Y205.187 E44.27696
G1 X213.174 Y206.15 E44.37394
G1 X212.964 Y207.098 E44.47083
G1 X212.677 Y208.026 E44.56775
G1 X212.314 Y208.927 E44.66468
G1 X211.878 Y209.795 E44.7616
G1 X211.372 Y210.624 E44.85851
G1 X210.8 Y211.409 E44.95542
G1 X210.165 Y212.144 E45.05234
G1 X209.472 Y212.825 E45.14929
G1 X208.725 Y213.446 E45.24622
G1 X207.929 Y214.004 E45.34321
G1 X207.091 Y214.494 E45.44007
G1 X206.215 Y214.914 E45.53701
G1 X205.307 Y215.26 E45.63396
G1 X204.374 Y215.53 E45.73088
G1 X203.422 Y215.723 E45.8278
G1 X202.457 Y215.837 E45.92476
G1 X201.89 Y215.866 E45.98141
G1 X201.569 Y215.875 E46.01345
G1 X201.238 Y215.88 E46.04648
G1 X149.139 Y215.88 E51.24494
G1 X148.987 Y215.879 E51.26011
G1 X148.289 Y215.87 E51.32976
G1 X147.319 Y215.818 E51.42669
G1 X146.357 Y215.685 E51.52359
G1 X145.408 Y215.475 E51.62057
G1 X144.481 Y215.187 E51.71743
G1 X143.58 Y214.823 E51.81439
G1 X142.712 Y214.387 E51.91131
G1 X141.883 Y213.881 E52.00822
G1 X141.098 Y213.308 E52.1052
G1 X140.363 Y212.673 E52.20211
G1 X139.683 Y211.979 E52.29906
G1 X139.062 Y211.232 E52.39599
G1 X138.505 Y210.436 E52.49293
G1 X138.015 Y209.598 E52.58979
G1 X137.596 Y208.721 E52.68677
G1 X137.25 Y207.814 E52.78364
G1 X136.98 Y206.88 E52.88065
G1 X136.788 Y205.928 E52.97755
G1 X136.675 Y204.963 E53.0745
G1 X136.645 Y204.39 E53.13175
G1 X136.636 Y204.057 E53.16499
G1 X136.632 Y203.738 E53.19682
G1 X136.632 Y146.594 E58.89867
G1 X136.633 Y146.434 E58.91464
G1 X136.642 Y145.769 E58.981
G1 X136.695 Y144.799 E59.07793
G1 X136.828 Y143.837 E59.17483
G1 X137.039 Y142.889 E59.27174
G1 X137.328 Y141.961 E59.36872
G1 X137.692 Y141.061 E59.46559
G1 X138.129 Y140.193 E59.56255
G1 X138.636 Y139.364 E59.65952
G1 X139.209 Y138.58 E59.75641
G1 X139.844 Y137.846 E59.85325
G1 X140.538 Y137.166 E59.9502
G0 F6000 X141.021 Y138.359
G1 F1200 X141.706 Y137.743 E60.04212
G1 X142.442 Y137.19 E60.13398
G1 X143.223 Y136.702 E60.22587
G1 X144.043 Y136.284 E60.31771
G1 X144.897 Y135.939 E60.40961
G1 X145.777 Y135.669 E60.50146
G1 X146.677 Y135.477 E60.59328
G1 X147.591 Y135.363 E60.68519
G1 X148.144 Y135.333 E60.74045
G1 X148.465 Y135.324 E60.77249
G1 X148.762 Y135.32 E60.80213
G1 X200.861 Y135.32 E66.00058
G1 X201.013 Y135.321 E66.01575
G1 X201.711 Y135.331 E66.08541
G1 X202.63 Y135.384 E66.17726
G1 X203.541 Y135.517 E66.26912
G1 X204.437 Y135.728 E66.36097
G1 X205.311 Y136.016 E66.45279
G1 X206.158 Y136.379 E66.54474
G1 X206.969 Y136.814 E66.63657
G1 X207.739 Y137.318 E66.72839
G1 X208.463 Y137.887 E66.82027
G1 X209.135 Y138.517 E66.91218
G1 X209.75 Y139.202 E67.00404
G1 X210.303 Y139.938 E67.0959
G1 X210.79 Y140.719 E67.18773
G1 X211.207 Y141.54 E67.27961
G1 X211.552 Y142.394 E67.37152
G1 X211.821 Y143.274 E67.46334
G1 X212.013 Y144.175 E67.55526
G1 X212.126 Y145.088 E67.64705
G1 X212.155 Y145.632 E67.70141
G1 X212.164 Y145.952 E67.73335
G1 X212.168 Y146.25 E67.76309
G1 X212.168 Y203.344 E73.45995
G1 X212.167 Y203.475 E73.47302
G1 X212.158 Y204.202 E73.54557
G1 X212.107 Y205.121 E73.63741
G1 X211.976 Y206.033 E73.72934
G1 X211.766 Y206.929 E73.82117
G1 X211.48 Y207.804 E73.91302
G1 X211.119 Y208.651 E74.00489
G1 X210.685 Y209.463 E74.09676
G1 X210.183 Y210.235 E74.18864
G1 X209.615 Y210.96 E74.28054
G1 X208.987 Y211.633 E74.37239
G1 X208.303 Y212.249 E74.46424
G1 X207.568 Y212.803 E74.55607
G1 X206.788 Y213.292 E74.64793
G1 X205.968 Y213.711 E74.73982
G1 X205.115 Y214.057 E74.83166
G1 X204.235 Y214.328 E74.92354
G1 X203.335 Y214.521 E75.01538
G1 X202.421 Y214.636 E75.1073
G1 X201.856 Y214.667 E75.16376
G1 X201.535 Y214.676 E75.1958
G1 X201.238 Y214.68 E75.22544
G1 X149.139 Y214.68 E80.4239
G1 X149.002 Y214.679 E80.43757
G1 X148.304 Y214.67 E80.50722
G1 X147.385 Y214.618 E80.59907
G1 X146.474 Y214.487 E80.6909
G1 X145.578 Y214.277 E80.78273
G1 X144.703 Y213.99 E80.87461
G1 X143.856 Y213.628 E80.96652
G1 X143.044 Y213.194 E81.05839
G1 X142.273 Y212.692 E81.15019
G1 X141.548 Y212.124 E81.24209
G1 X140.875 Y211.495 E81.33401
G1 X140.26 Y210.811 E81.42579
G1 X139.706 Y210.076 E81.51762
G1 X139.218 Y209.295 E81.60952
G1 X138.799 Y208.475 E81.7014
G1 X138.453 Y207.622 E81.79325
G1 X138.183 Y206.742 E81.88509
G1 X137.99 Y205.841 E81.97703
G1 X137.876 Y204.928 E82.06884
G1 X137.845 Y204.357 E82.1259
G1 X137.836 Y204.024 E82.15914
G1 X137.832 Y203.738 E82.18768
G1 X137.832 Y146.594 E87.88953
G1 X137.833 Y146.451 E87.9038
G1 X137.842 Y145.786 E87.97016
G1 X137.894 Y144.866 E88.0621
G1 X138.026 Y143.955 E88.15395
G1 X138.237 Y143.059 E88.2458
G1 X138.524 Y142.184 E88.33769
G1 X138.887 Y141.338 E88.42954
G1 X139.321 Y140.526 E88.52141
G1 X139.824 Y139.755 E88.61327
G1 X140.393 Y139.031 E88.70515
G1 X141.021 Y138.359 E88.79692
G1 F1500 E82.29692
;MESH:keybox_test_print.stl
G0 F6000 X149.646 Y145.255
G0 X149.646 Y147.134
G0 X154.876 Y150.702
G0 X158.43 Y167.67
G0 X159.23 Y168.669
G0 X177.92 Y169.442
;TYPE:WALL-INNER
G1 F1500 E88.79692
G1 F1200 X178.72 Y169.442 E88.87675
G1 X178.72 Y150.982 E90.71869
G1 X177.92 Y150.982 E90.79852
G1 X177.92 Y149.982 E90.8983
G1 X157.458 Y149.982 E92.94
G1 X157.458 Y150.982 E93.03978
G1 X156.658 Y150.982 E93.11961
G1 X156.658 Y169.442 E94.96156
G1 X157.458 Y169.442 E95.04138
G1 X157.458 Y170.441 E95.14106
G1 X177.92 Y170.441 E97.18277
G1 X177.92 Y169.442 E97.28245
G0 F6000 X176.72 Y169.241
G1 F1200 X176.72 Y168.242 E97.38213
G1 X177.52 Y168.242 E97.46195
G1 X177.52 Y161.08 E98.17658
G1 X176.72 Y161.08 E98.2564
G1 X176.72 Y159.343 E98.42972
G1 X177.52 Y159.343 E98.50955
G1 X177.52 Y152.182 E99.22407
G1 X176.72 Y152.182 E99.3039
G1 X176.72 Y151.182 E99.40368
G1 X158.658 Y151.182 E101.20591
G1 X158.658 Y152.182 E101.30569
G1 X157.858 Y152.182 E101.38552
G1 X157.858 Y159.343 E102.10004
G1 X158.658 Y159.343 E102.17987
G1 X158.658 Y161.08 E102.35319
G1 X157.858 Y161.08 E102.43301
G1 X157.858 Y168.242 E103.14764
G1 X158.658 Y168.242 E103.22746
G1 X158.658 Y169.241 E103.32714
G1 X176.72 Y169.241 E105.12938
G1 F1500 E98.62938
G0 F6000 X176.19 Y167.712
G0 X175.52 Y167.042
;TYPE:WALL-OUTER
G1 F1500 E105.12938
G1 F1200 X176.32 Y167.042 E105.2092
G1 X176.32 Y162.28 E105.68436
G1 X175.52 Y162.28 E105.76418
G1 X175.52 Y158.143 E106.17697
G1 X176.32 Y158.143 E106.2568
G1 X176.32 Y153.382 E106.73185
G1 X175.52 Y153.382 E106.81168
G1 X175.52 Y152.382 E106.91146
G1 X159.858 Y152.382 E108.47422
G1 X159.858 Y153.382 E108.574
G1 X159.058 Y153.382 E108.65382
G1 X159.058 Y158.143 E109.12888
G1 X159.858 Y158.143 E109.2087
G1 X159.858 Y162.28 E109.62149
G1 X159.058 Y162.28 E109.70132
G1 X159.058 Y167.042 E110.17647
G1 X159.858 Y167.042 E110.25629
G1 X159.858 Y168.041 E110.35598
G1 X175.52 Y168.041 E111.91874
G1 X175.52 Y167.042 E112.01842
G1 F1500 E105.51842
G0 F6000 X176.19 Y167.712
G0 X176.148 Y168.669
G0 X154.876 Y171.224
G0 X154.876 Y150.702
G0 X153.214 Y150.702
G0 X153.214 Y180.2
G0 X173.946 Y181.21
G0 X171.013 Y199.67
G0 X170.785 Y200.242
;TYPE:WALL-INNER
G1 F1500 E112.01842
G1 F1200 X171.585 Y200.242 E112.09824
G1 X171.585 Y193.08 E112.81287
G1 X170.785 Y193.08 E112.89269
G1 X170.785 Y191.343 E113.06601
G1 X171.585 Y191.343 E113.14584
G1 X171.585 Y184.182 E113.86036
G1 X170.785 Y184.182 E113.94019
G1 X170.785 Y183.182 E114.03997
G1 X152.723 Y183.182 E115.8422
G1 X152.723 Y184.182 E115.94198
G1 X151.923 Y184.182 E116.02181
G1 X151.923 Y191.343 E116.73633
G1 X152.723 Y191.343 E116.81616
G1 X152.723 Y193.08 E116.98948
G1 X151.923 Y193.08 E117.0693
G1 X151.923 Y200.242 E117.78393
G1 X152.723 Y200.242 E117.86375
G1 X152.723 Y201.241 E117.96343
G1 X170.785 Y201.241 E119.76567
G1 X170.785 Y200.242 E119.86535
G1 F1500 E113.36535
G0 F6000 X170.255 Y199.712
G0 X169.585 Y199.042
;TYPE:WALL-OUTER
G1 F1500 E119.86535
G1 F1200 X170.385 Y199.042 E119.94517
G1 X170.385 Y194.28 E120.42033
G1 X169.585 Y194.28 E120.50015
G1 X169.585 Y190.143 E120.91294
G1 X170.385 Y190.143 E120.99277
G1 X170.385 Y185.382 E121.46782
G1 X169.585 Y185.382 E121.54764
G1 X169.585 Y184.382 E121.64743
G1 X153.923 Y184.382 E123.21019
G1 X153.923 Y185.382 E123.30997
G1 X153.123 Y185.382 E123.38979
G1 X153.123 Y190.143 E123.86485
G1 X153.923 Y190.143 E123.94467
G1 X153.923 Y194.28 E124.35746
G1 X153.123 Y194.28 E124.43729
G1 X153.123 Y199.042 E124.91244
G1 X153.923 Y199.042 E124.99226
G1 X153.923 Y200.041 E125.09194
G1 X169.585 Y200.041 E126.65471
G1 X169.585 Y199.042 E126.75439
G0 F6000 X170.255 Y199.712
G0 X178.723 Y200.242
;TYPE:WALL-INNER
G1 F1200 X178.723 Y201.241 E126.85407
G1 X196.785 Y201.241 E128.6563
G1 X196.785 Y200.242 E128.75598
G1 X197.585 Y200.242 E128.83581
G1 X197.585 Y193.08 E129.55043
G1 X196.785 Y193.08 E129.63026
G1 X196.785 Y191.343 E129.80358
G1 X197.585 Y191.343 E129.8834
G1 X197.585 Y184.182 E130.59793
G1 X196.785 Y184.182 E130.67775
G1 X196.785 Y183.182 E130.77753
G1 X178.723 Y183.182 E132.57977
G1 X178.723 Y184.182 E132.67955
G1 X177.923 Y184.182 E132.75937
G1 X177.923 Y191.343 E133.4739
G1 X178.723 Y191.343 E133.55372
G1 X178.723 Y193.08 E133.72704
G1 X177.923 Y193.08 E133.80687
G1 X177.923 Y200.242 E134.52149
G1 X178.723 Y200.242 E134.60132
G1 F1500 E128.10132
G0 F6000 X179.253 Y199.712
G0 X179.923 Y199.042
;TYPE:WALL-OUTER
G1 F1500 E134.60132
G1 F1200 X179.923 Y200.041 E134.701
G1 X195.585 Y200.041 E136.26376
G1 X195.585 Y199.042 E136.36344
G1 X196.385 Y199.042 E136.44326
G1 X196.385 Y194.28 E136.91842
G1 X195.585 Y194.28 E136.99824
G1 X195.585 Y190.143 E137.41103
G1 X196.385 Y190.143 E137.49086
G1 X196.385 Y185.382 E137.96591
G1 X195.585 Y185.382 E138.04574
G1 X195.585 Y184.382 E138.14552
G1 X179.923 Y184.382 E139.70828
G1 X179.923 Y185.382 E139.80806
G1 X179.123 Y185.382 E139.88788
G1 X179.123 Y190.143 E140.36294
G1 X179.923 Y190.143 E140.44276
G1 X179.923 Y194.28 E140.85555
G1 X179.123 Y194.28 E140.93538
G1 X179.123 Y199.042 E141.41053
G1 X179.923 Y199.042 E141.49036
G1 F1500 E134.99036
G0 F6000 X179.253 Y199.712
G0 X174.567 Y199.298
G0 X171.013 Y184.754
G0 X170.213 Y183.754
G0 X152.632 Y180.782
;TYPE:WALL-INNER
G1 F1500 E141.49036
G1 F1200 X152.632 Y150.12 E144.54982
G1 X155.458 Y150.12 E144.8318
G1 X155.458 Y170.642 E146.8795
G1 X156.258 Y170.642 E146.95932
G1 X156.258 Y171.641 E147.059
G1 X179.12 Y171.641 E149.34018
G1 X179.12 Y170.642 E149.43986
G1 X179.92 Y170.642 E149.51968
G1 X179.92 Y150.12 E151.56738
G1 X197.368 Y150.12 E153.30835
G1 X197.368 Y180.782 E156.36781
G1 X176.323 Y180.782 E158.46769
G1 X176.323 Y181.782 E158.56747
G1 X175.523 Y181.782 E158.6473
G1 X175.523 Y199.88 E160.45312
G1 X173.985 Y199.88 E160.60658
G1 X173.985 Y181.782 E162.41241
G1 X173.185 Y181.782 E162.49223
G1 X173.185 Y180.782 E162.59202
G1 X152.632 Y180.782 E164.6428
G0 F6000 X151.523 Y181.982
G1 F1200 X151.523 Y182.982 E164.74258
G1 X151.432 Y182.982
G1 X151.432 Y181.982 E164.75016
G1 X151.432 Y148.92 E168.0491
G1 X157.458 Y148.92 E168.65037
G1 X177.92 Y148.92 E170.45879
G1 X198.568 Y148.92 E172.51905
G1 X198.568 Y181.982 E175.81799
