;FLAVOR:Marlin
;TIME:135446
;Filament used: 299.719m
;Layer height: 0.5
;MINX:2
;MINY:72
;MINZ:0.2
;MAXX:348
;MAXY:278
;MAXZ:44.7
;Generated with Cura_SteamEngine 4.4.1
M140 S55
M105
M190 S55
M104 S200
M105
M109 S200
M82 ;absolute extrusion mode
M201 X500.00 Y500.00 Z100.00 E5000.00 ;Setup machine max acceleration
M203 X500.00 Y500.00 Z10.00 E50.00 ;Setup machine max feedrate
M204 P500.00 R1000.00 T500.00 ;Setup Print/Retract/Travel acceleration
M205 X8.00 Y8.00 Z0.40 E5.00 ;Setup Jerk
M220 S100 ;Reset Feedrate
M221 S100 ;Reset Flowrate

G28 ;Home
M420 S1 Z2 ;Enable ABL using saved Mesh and Fade Height

G92 E0 ;Reset Extruder
G1 Z2.0 F3000 ;Move Z Axis up
G1 X10.1 Y20 Z0.28 F5000.0 ;Move to start position
G1 X10.1 Y200.0 Z0.28 F1500.0 E15 ;Draw the first line
G1 X10.4 Y200.0 Z0.28 F5000.0 ;Move to side a little
G1 X10.4 Y20 Z0.28 F1500.0 E30 ;Draw the second line
G92 E0 ;Reset Extruder
G1 Z2.0 F3000 ;Move Z Axis up

G92 E0
G92 E0
G1 F1500 E-6.5
;LAYER_COUNT:90
;LAYER:0
M107
G0 F6000 X21.147 Y72.596 Z0.2
;TYPE:SKIRT
G1 F1500 E0
G1 F1200 X22.132 Y72.332 E0.10175
G1 X23.135 Y72.146 E0.20354
G1 X24.149 Y72.039 E0.30528
G1 X24.747 Y72.014 E0.365
G1 X25.307 Y72.003 E0.42089
G1 X25.562 Y72 E0.44633
G1 X324.293 Y72 E30.25383
G1 X324.478 Y72.001 E30.27229
G1 X325.179 Y72.011 E30.34225
G1 X326.198 Y72.066 E30.44407
G1 X327.208 Y72.2 E30.54573
G1 X328.205 Y72.413 E30.64746
G1 X329.183 Y72.703 E30.74924
G1 X330.134 Y73.069 E30.85092
G1 X331.054 Y73.509 E30.95267
G1 X331.937 Y74.019 E31.05442
G1 X332.777 Y74.597 E31.15616
G1 X333.945 Y75.583 E31.30868
G1 X334.262 Y75.884 E31.3523
G1 X334.503 Y76.119 E31.38588
G1 X343.711 Y85.327 E32.68523
G1 X343.839 Y85.456 E32.70337
G1 X344.297 Y85.927 E32.76892
G1 X344.979 Y86.685 E32.87066
G1 X345.599 Y87.495 E32.97244
G1 X346.154 Y88.35 E33.07415
G1 X346.64 Y89.247 E33.17595
G1 X347.054 Y90.178 E33.27761
G1 X347.394 Y91.14 E33.37942
G1 X347.657 Y92.125 E33.48115
G1 X347.843 Y93.127 E33.58283
G1 X347.967 Y94.468 E33.71721
G1 X347.99 Y95.04 E33.77433
G1 X348 Y95.562 E33.82643
G1 X348 Y254.293 E49.66467
G1 X347.999 Y254.479 E49.68323
G1 X347.989 Y255.177 E49.75288
G1 X347.934 Y256.195 E49.85461
G1 X347.8 Y257.206 E49.95637
G1 X347.587 Y258.203 E50.05809
G1 X347.296 Y259.181 E50.15991
G1 X346.93 Y260.132 E50.26158
G1 X346.491 Y261.052 E50.3633
G1 X345.98 Y261.935 E50.46509
G1 X345.402 Y262.775 E50.56683
G1 X344.634 Y263.708 E50.68741
G1 X344.493 Y263.864 E50.70839
G1 X344.141 Y264.238 E50.75964
G1 X343.96 Y264.423 E50.78546
G1 X343.86 Y264.524 E50.79965
G1 X334.681 Y273.703 E52.0949
G1 X334.555 Y273.828 E52.11261
G1 X334.071 Y274.299 E52.18
G1 X333.313 Y274.981 E52.28174
G1 X332.504 Y275.601 E52.38344
G1 X331.649 Y276.156 E52.48515
G1 X330.753 Y276.642 E52.58686
G1 X329.821 Y277.057 E52.68866
G1 X328.86 Y277.397 E52.79037
G1 X327.875 Y277.661 E52.89212
G1 X326.873 Y277.847 E52.99381
G1 X325.417 Y277.975 E53.13965
G1 X324.85 Y277.993 E53.19626
G1 X324.438 Y278 E53.23737
G1 X25.707 Y278 E83.04487
G1 X25.521 Y277.999 E83.06343
G1 X24.823 Y277.989 E83.13308
G1 X23.805 Y277.934 E83.23481
G1 X22.794 Y277.8 E83.33657
G1 X21.797 Y277.587 E83.4383
G1 X20.819 Y277.296 E83.54011
G1 X19.868 Y276.93 E83.64179
G1 X18.948 Y276.491 E83.7435
G1 X18.065 Y275.98 E83.84529
G1 X17.225 Y275.402 E83.94704
G1 X16.292 Y274.634 E84.06761
G1 X16.136 Y274.493 E84.0886
G1 X15.756 Y274.136 E84.14062
G1 X15.561 Y273.945 E84.16786
G1 X6.289 Y264.673 E85.47624
G1 X6.164 Y264.547 E85.49394
G1 X5.695 Y264.065 E85.56105
G1 X5.013 Y263.307 E85.66279
G1 X4.393 Y262.498 E85.76449
G1 X3.838 Y261.642 E85.86629
G1 X3.351 Y260.746 E85.96804
G1 X2.937 Y259.815 E86.06971
G1 X2.597 Y258.853 E86.17152
G1 X2.333 Y257.869 E86.27317
G1 X2.147 Y256.866 E86.37496
G1 X2.04 Y255.852 E86.4767
G1 X2.015 Y255.277 E86.53412
G1 X2.003 Y254.716 E86.59011
G1 X2 Y254.438 E86.61785
G1 X2 Y95.707 E102.4561
G1 X2.001 Y95.521 E102.47466
G1 X2.011 Y94.823 E102.54431
G1 X2.066 Y93.805 E102.64604
G1 X2.2 Y92.794 E102.7478
G1 X2.413 Y91.797 E102.84952
G1 X2.704 Y90.819 E102.95134
G1 X3.07 Y89.868 E103.05301
G1 X3.509 Y88.948 E103.15473
G1 X4.02 Y88.065 E103.25652
G1 X4.598 Y87.225 E103.35826
G1 X5.366 Y86.292 E103.47884
G1 X5.507 Y86.136 E103.49982
G1 X5.859 Y85.762 E103.55107
G1 X6.04 Y85.577 E103.57689
G1 X6.14 Y85.476 E103.59108
G1 X15.327 Y76.289 E104.88746
G1 X15.453 Y76.164 E104.90517
G1 X15.936 Y75.694 E104.97242
G1 X16.694 Y75.012 E105.07416
G1 X17.503 Y74.392 E105.17586
G1 X18.358 Y73.837 E105.27757
G1 X19.255 Y73.351 E105.37936
G1 X20.186 Y72.936 E105.48107
G1 X21.147 Y72.596 E105.58278
G0 F6000 X21.767 Y73.663
G1 F1200 X22.712 Y73.435 E105.67978
G1 X23.671 Y73.286 E105.77662
G1 X24.77 Y73.213 E105.88652
G1 X25.33 Y73.202 E105.94241
G1 X25.562 Y73.2 E105.96556
G1 X324.293 Y73.2 E135.77306
G1 X324.461 Y73.201 E135.78982
G1 X325.162 Y73.211 E135.85977
G1 X326.132 Y73.265 E135.95671
G1 X327.094 Y73.398 E136.05361
G1 X328.042 Y73.611 E136.15056
G1 X328.97 Y73.9 E136.24755
G1 X329.87 Y74.265 E136.34445
G1 X330.737 Y74.702 E136.44133
G1 X331.566 Y75.209 E136.53829
G1 X332.35 Y75.783 E136.63524
G1 X333.119 Y76.453 E136.73701
G1 X333.436 Y76.754 E136.78063
G1 X333.655 Y76.967 E136.81111
G1 X342.863 Y86.175 E138.11046
G1 X342.979 Y86.293 E138.12697
G1 X343.437 Y86.764 E138.19253
G1 X344.085 Y87.487 E138.2894
G1 X344.671 Y88.262 E138.38635
G1 X345.192 Y89.082 E138.48329
G1 X345.643 Y89.942 E138.58018
G1 X346.022 Y90.837 E138.67716
G1 X346.326 Y91.759 E138.77403
G1 X346.553 Y92.704 E138.87101
G1 X346.702 Y93.664 E138.96794
G1 X346.767 Y94.516 E139.0532
G1 X346.79 Y95.088 E139.11032
G1 X346.8 Y95.562 E139.15763
G1 X346.8 Y254.293 E154.99587
G1 X346.799 Y254.462 E155.01274
G1 X346.789 Y255.16 E155.08239
G1 X346.735 Y256.13 E155.17933
G1 X346.601 Y257.092 E155.27624
G1 X346.389 Y258.04 E155.37317
G1 X346.1 Y258.967 E155.47006
G1 X345.735 Y259.868 E155.56706
G1 X345.298 Y260.735 E155.66393
G1 X344.79 Y261.563 E155.76086
G1 X344.216 Y262.347 E155.85782
G1 X343.744 Y262.903 E155.93059
G1 X343.603 Y263.059 E155.95157
G1 X343.284 Y263.399 E155.99809
G1 X343.103 Y263.584 E156.02391
G1 X343.012 Y263.676 E156.03683
G1 X333.833 Y272.855 E157.33208
G1 X333.719 Y272.968 E157.3481
G1 X333.235 Y273.439 E157.41548
G1 X332.511 Y274.087 E157.51244
G1 X331.737 Y274.673 E157.6093
G1 X330.917 Y275.194 E157.70624
G1 X330.057 Y275.646 E157.80318
G1 X329.163 Y276.025 E157.90007
G1 X328.24 Y276.33 E157.99707
G1 X327.296 Y276.558 E158.09397
G1 X326.336 Y276.707 E158.1909
G1 X325.379 Y276.776 E158.28664
G1 X324.812 Y276.794 E158.34325
G1 X324.438 Y276.8 E158.38057
G1 X25.707 Y276.8 E188.18807
G1 X25.538 Y276.799 E188.20493
G1 X24.84 Y276.789 E188.27459
G1 X23.87 Y276.735 E188.37152
G1 X22.908 Y276.601 E188.46844
G1 X21.96 Y276.389 E188.56537
G1 X21.033 Y276.1 E188.66225
G1 X20.132 Y275.735 E188.75925
G1 X19.265 Y275.298 E188.85613
G1 X18.437 Y274.79 E188.95306
G1 X17.653 Y274.216 E189.05001
G1 X17.097 Y273.744 E189.12278
G1 X16.941 Y273.603 E189.14377
G1 X16.596 Y273.279 E189.19099
G1 X16.401 Y273.088 E189.21823
G1 X16.314 Y273.002 E189.23043
G1 X7.137 Y263.825 E190.52541
G1 X7.024 Y263.71 E190.54149
G1 X6.555 Y263.228 E190.6086
G1 X5.907 Y262.505 E190.70547
G1 X5.32 Y261.73 E190.80248
G1 X4.799 Y260.91 E190.89942
G1 X4.348 Y260.05 E190.99631
G1 X3.968 Y259.156 E191.09324
G1 X3.664 Y258.233 E191.19021
G1 X3.436 Y257.289 E191.28711
G1 X3.287 Y256.329 E191.38404
G1 X3.215 Y255.251 E191.49185
G1 X3.203 Y254.69 E191.54784
G1 X3.2 Y254.438 E191.57298
G1 X3.2 Y95.707 E207.41123
G1 X3.201 Y95.538 E207.42809
G1 X3.211 Y94.84 E207.49774
G1 X3.265 Y93.87 E207.59468
G1 X3.399 Y92.908 E207.6916
G1 X3.611 Y91.96 E207.78852
G1 X3.9 Y91.033 E207.88541
G1 X4.265 Y90.132 E207.98241
G1 X4.702 Y89.265 E208.07929
G1 X5.21 Y88.437 E208.17622
G1 X5.784 Y87.653 E208.27317
G1 X6.256 Y87.097 E208.34594
G1 X6.397 Y86.941 E208.36692
G1 X6.716 Y86.601 E208.41344
G1 X6.897 Y86.416 E208.43927
G1 X6.988 Y86.324 E208.45218
G1 X16.175 Y77.137 E209.74856
G1 X16.29 Y77.024 E209.76465
G1 X16.773 Y76.554 E209.8319
G1 X17.496 Y75.906 E209.92877
G1 X18.271 Y75.319 E210.02578
G1 X19.091 Y74.799 E210.12266
G1 X19.951 Y74.347 E210.21961
G1 X20.845 Y73.968 E210.31649
G1 X21.767 Y73.663 E210.4134
G0 F6000 X21.494 Y75.008
G1 F1200 X22.375 Y74.742 E210.50522
G1 X23.276 Y74.553 E210.59708
G1 X24.19 Y74.442 E210.68895
G1 X24.794 Y74.413 E210.74929
G1 X25.354 Y74.402 E210.80517
G1 X25.562 Y74.4 E210.82593
G1 X324.293 Y74.4 E240.63343
G1 X324.444 Y74.401 E240.6485
G1 X325.145 Y74.411 E240.71845
G1 X326.064 Y74.464 E240.8103
G1 X326.975 Y74.597 E240.90216
G1 X327.871 Y74.808 E240.99401
G1 X328.746 Y75.096 E241.08593
G1 X329.592 Y75.459 E241.17779
G1 X330.403 Y75.894 E241.26961
G1 X331.174 Y76.398 E241.36152
G1 X331.898 Y76.967 E241.4534
G1 X332.293 Y77.323 E241.50646
G1 X332.61 Y77.624 E241.55008
G1 X332.806 Y77.816 E241.57746
G1 X342.014 Y87.024 E242.87681
G1 X342.118 Y87.129 E242.89155
G1 X342.576 Y87.6 E242.9571
G1 X343.189 Y88.288 E243.04905
G1 X343.74 Y89.025 E243.14087
G1 X344.224 Y89.808 E243.23272
G1 X344.639 Y90.63 E243.3246
G1 X344.981 Y91.485 E243.41648
G1 X345.247 Y92.366 E243.50831
G1 X345.436 Y93.267 E243.60016
G1 X345.568 Y94.564 E243.73025
G1 X345.591 Y95.136 E243.78737
G1 X345.6 Y95.562 E243.82988
G1 X345.6 Y254.293 E259.66813
G1 X345.599 Y254.445 E259.6833
G1 X345.589 Y255.143 E259.75295
G1 X345.536 Y256.062 E259.8448
G1 X345.403 Y256.973 E259.93666
G1 X345.192 Y257.869 E260.02851
G1 X344.904 Y258.743 E260.12033
G1 X344.541 Y259.59 E260.21228
G1 X344.106 Y260.401 E260.30411
G1 X343.602 Y261.171 E260.39593
G1 X342.854 Y262.099 E260.51487
G1 X342.713 Y262.255 E260.53585
G1 X342.426 Y262.56 E260.57764
G1 X342.245 Y262.745 E260.60346
G1 X332.882 Y272.108 E261.92468
G1 X332.398 Y272.579 E261.99207
G1 X331.711 Y273.191 E262.08387
G1 X330.973 Y273.742 E262.17577
G1 X330.19 Y274.227 E262.26767
G1 X329.368 Y274.642 E262.35955
G1 X328.514 Y274.984 E262.45134
G1 X327.633 Y275.251 E262.5432
G1 X326.732 Y275.44 E262.63506
G1 X325.818 Y275.551 E262.72693
G1 X325.341 Y275.577 E262.77459
G1 X324.774 Y275.595 E262.8312
G1 X324.438 Y275.6 E262.86473
G1 X25.707 Y275.6 E292.67223
G1 X25.555 Y275.599 E292.68739
G1 X24.857 Y275.589 E292.75705
G1 X23.938 Y275.536 E292.8489
G1 X23.027 Y275.403 E292.94076
G1 X22.131 Y275.192 E293.03261
G1 X21.257 Y274.904 E293.12443
G1 X20.41 Y274.541 E293.21638
G1 X19.599 Y274.106 E293.30821
G1 X18.829 Y273.602 E293.40003
G1 X17.901 Y272.854 E293.51896
G1 X17.745 Y272.713 E293.53994
G1 X17.436 Y272.422 E293.5823
G1 X17.241 Y272.231 E293.60953
G1 X7.986 Y262.976 E294.91551
G1 X7.884 Y262.873 E294.92998
G1 X7.415 Y262.391 E294.99708
G1 X6.802 Y261.704 E295.08895
G1 X6.251 Y260.966 E295.18085
G1 X5.767 Y260.184 E295.27261
G1 X5.352 Y259.362 E295.36449
G1 X5.009 Y258.507 E295.45642
G1 X4.743 Y257.626 E295.54824
G1 X4.553 Y256.725 E295.64012
G1 X4.443 Y255.811 E295.73198
G1 X4.414 Y255.226 E295.79042
G1 X4.402 Y254.665 E295.84641
G1 X4.4 Y254.438 E295.86906
G1 X4.4 Y95.707 E311.70731
G1 X4.401 Y95.555 E311.72247
G1 X4.411 Y94.857 E311.79213
G1 X4.464 Y93.938 E311.88398
G1 X4.597 Y93.027 E311.97584
G1 X4.808 Y92.131 E312.06769
G1 X5.096 Y91.257 E312.15951
G1 X5.459 Y90.41 E312.25146
G1 X5.894 Y89.599 E312.34329
G1 X6.398 Y88.829 E312.43511
G1 X7.146 Y87.901 E312.55404
G1 X7.287 Y87.745 E312.57502
G1 X7.574 Y87.44 E312.61681
G1 X7.755 Y87.255 E312.64264
G1 X17.024 Y77.986 E313.95059
G1 X17.127 Y77.884 E313.96506
G1 X17.61 Y77.414 E314.0323
G1 X18.297 Y76.801 E314.12417
G1 X19.034 Y76.25 E314.21599
G1 X19.817 Y75.766 E314.30784
G1 X20.639 Y75.351 E314.39972
G1 X21.494 Y75.008 E314.49164
G1 F1500 E307.99164
;MESH:keybox_bot_plate.stl
G0 F6000 X26.994 Y84.335
G0 X26.994 Y89.81
G0 X19.774 Y96.979
G0 X19.774 Y253.021
G0 X26.979 Y260.226
G0 X323.258 Y260.8
;TYPE:WALL-INNER
G1 F1500 E314.49164
G1 F1200 X26.742 Y260.8 E344.07813
G1 X19.2 Y253.258 E345.14239
G1 X19.2 Y96.742 E360.75962
G1 X26.742 Y89.2 E361.82387
G1 X323.258 Y89.2 E391.41036
G1 X330.8 Y96.742 E392.47462
G1 X330.8 Y253.258 E408.09185
G1 X323.258 Y260.8 E409.15611
G0 F6000 X323.756 Y262
G1 F1200 X26.244 Y262 E438.84197
G1 X18 Y253.756 E440.00529
G1 X18 Y96.244 E455.7219
G1 X26.244 Y88 E456.88522
G1 X323.756 Y88 E486.57109
G1 X332 Y96.244 E487.7344
G1 X332 Y253.756 E503.45102
G1 X323.756 Y262 E504.61433
G0 F6000 X324.254 Y263.2
G1 F1200 X25.746 Y263.2 E534.39958
G1 X16.8 Y254.254 E535.66196
G1 X16.8 Y95.746 E551.47795
G1 X25.746 Y86.8 E552.74033
G1 X324.254 Y86.8 E582.52558
G1 X333.2 Y95.746 E583.78796
G1 X333.2 Y254.254 E599.60395
G1 X324.254 Y263.2 E600.86633
G0 F6000 X324.466 Y263.708
G0 X324.752 Y264.4
;TYPE:WALL-OUTER
G1 F1200 X25.248 Y264.4 E630.75096
G1 X15.6 Y254.752 E632.11239
G1 X15.6 Y95.248 E648.02777
G1 X25.248 Y85.6 E649.3892
G1 X324.752 Y85.6 E679.27383
G1 X334.4 Y95.248 E680.63527
G1 X334.4 Y254.752 E696.55065
G1 X324.752 Y264.4 E697.91208
G0 F6000 X324.247 Y263.181
G0 X323.246 Y260.09
G0 X322.766 Y259.61
;TYPE:SKIN
G1 F1200 X27.234 Y259.61 E727.40038
G1 X20.39 Y252.766 E728.36615
G1 X20.39 Y97.234 E743.88519
G1 X27.234 Y90.39 E744.85096
G1 X322.766 Y90.39 E774.33926
G1 X329.61 Y97.234 E775.30502
G1 X329.61 Y252.766 E790.82407
G1 X322.766 Y259.61 E791.78983
G1 F1500 E785.28983
G0 F6000 X323.246 Y260.09
G0 X330.226 Y253.021
G0 X330.226 Y96.979
G0 X323.021 Y89.774
G0 X321.669 Y89.71
G0 X321.669 Y90.869
G1 F1500 E791.78983
G1 F1200 X329.129 Y98.329 E792.84252
G0 F6000 X330.29 Y98.329
G0 X330.29 Y100.026
G0 X329.129 Y100.026
G1 F1200 X319.972 Y90.869 E794.13467
G0 F6000 X319.972 Y89.71
G0 X318.275 Y89.71
G0 X318.275 Y90.869
G1 F1200 X329.129 Y101.723 E795.66628
G0 F6000 X330.29 Y101.723
G0 X330.29 Y103.42
G0 X329.129 Y103.42
G1 F1200 X316.578 Y90.869 E797.43737
G0 F6000 X316.578 Y89.71
G0 X314.881 Y89.71
G0 X314.881 Y90.869
G1 F1200 X329.129 Y105.117 E799.44791
G0 F6000 X330.29 Y105.117
G0 X330.29 Y106.814
G0 X329.129 Y106.814
G1 F1200 X313.183 Y90.869 E801.69799
G0 F6000 X313.183 Y89.71
G0 X311.486 Y89.71
G0 X311.486 Y90.869
G1 F1200 X329.129 Y108.511 E804.18754
G0 F6000 X330.29 Y108.511
G0 X330.29 Y110.208
G0 X329.129 Y110.208
G1 F1200 X309.789 Y90.869 E806.91655
G0 F6000 X309.789 Y89.71
G0 X308.092 Y89.71
G0 X308.092 Y90.869
G1 F1200 X329.129 Y111.906 E809.8851
G0 F6000 X330.29 Y111.906
G0 X330.29 Y113.603
G0 X329.129 Y113.603
G1 F1200 X306.395 Y90.869 E813.09311
G0 F6000 X306.395 Y89.71
G0 X304.698 Y89.71
G0 X304.698 Y90.869
G1 F1200 X329.129 Y115.3 E816.54059
G0 F6000 X330.29 Y115.3
G0 X330.29 Y116.997
G0 X329.129 Y116.997
G1 F1200 X303.001 Y90.869 E820.22754
G0 F6000 X303.001 Y89.71
G0 X301.304 Y89.71
G0 X301.304 Y90.869
G1 F1200 X329.129 Y118.694 E824.15394
G0 F6000 X330.29 Y118.694
G0 X330.29 Y120.391
G0 X329.129 Y120.391
G1 F1200 X299.607 Y90.869 E828.31982
G0 F6000 X299.607 Y89.71
G0 X297.91 Y89.71
G0 X297.91 Y90.869
G1 F1200 X329.129 Y122.088 E832.72516
G0 F6000 X330.29 Y122.088
G0 X330.29 Y123.785
G0 X329.129 Y123.785
G1 F1200 X296.213 Y90.869 E837.36996
G0 F6000 X296.213 Y89.71
G0 X294.516 Y89.71
G0 X294.516 Y90.869
G1 F1200 X329.129 Y125.482 E842.25423
G0 F6000 X330.29 Y125.482
G0 X330.29 Y127.179
G0 X329.129 Y127.179
G1 F1200 X292.819 Y90.869 E847.37796
G0 F6000 X292.819 Y89.71
G0 X291.122 Y89.71
G0 X291.122 Y90.869
G1 F1200 X329.129 Y128.876 E852.74116
G0 F6000 X330.29 Y128.876
G0 X330.29 Y130.573
G0 X329.129 Y130.573
G1 F1200 X289.425 Y90.869 E858.34382
G0 F6000 X289.425 Y89.71
G0 X287.728 Y89.71
G0 X287.728 Y90.869
G1 F1200 X329.129 Y132.27 E864.18595
G0 F6000 X330.29 Y132.27
G0 X330.29 Y133.967
G0 X329.129 Y133.967
G1 F1200 X286.031 Y90.869 E870.26754
G0 F6000 X286.031 Y89.71
G0 X284.334 Y89.71
G0 X284.334 Y90.869
G1 F1200 X329.129 Y135.664 E876.5886
G0 F6000 X330.29 Y135.664
G0 X330.29 Y137.361
G0 X329.129 Y137.361
G1 F1200 X282.636 Y90.869 E883.1492
G0 F6000 X282.636 Y89.71
G0 X280.939 Y89.71
G0 X280.939 Y90.869
G1 F1200 X329.129 Y139.058 E889.94925
G0 F6000 X330.29 Y139.058
G0 X330.29 Y140.755
G0 X329.129 Y140.755
G1 F1200 X279.242 Y90.869 E896.98878
G0 F6000 X279.242 Y89.71
G0 X277.545 Y89.71
G0 X277.545 Y90.869
G1 F1200 X329.129 Y142.453 E904.26784
G0 F6000 X330.29 Y142.453
G0 X330.29 Y144.15
