;FLAVOR:Marlin
;TIME:43505
;Filament used: 97.5498m
;Layer height: 0.5
;MINX:12.002
;MINY:82.014
;MINZ:0.2
;MAXX:337.998
;MAXY:267.986
;MAXZ:10.7
;Generated with Cura_SteamEngine 4.4.1
M140 S55
M105
M190 S55
M104 S200
M105
M109 S200
M82 ;absolute extrusion mode
M201 X500.00 Y500.00 Z100.00 E5000.00 ;Setup machine max acceleration
M203 X500.00 Y500.00 Z10.00 E50.00 ;Setup machine max feedrate
M204 P500.00 R1000.00 T500.00 ;Setup Print/Retract/Travel acceleration
M205 X8.00 Y8.00 Z0.40 E5.00 ;Setup Jerk
M220 S100 ;Reset Feedrate
M221 S100 ;Reset Flowrate

G28 ;Home
M420 S1 Z2 ;Enable ABL using saved Mesh and Fade Height

G92 E0 ;Reset Extruder
G1 Z2.0 F3000 ;Move Z Axis up
G1 X10.1 Y20 Z0.28 F5000.0 ;Move to start position
G1 X10.1 Y200.0 Z0.28 F1500.0 E15 ;Draw the first line
G1 X10.4 Y200.0 Z0.28 F5000.0 ;Move to side a little
G1 X10.4 Y20 Z0.28 F1500.0 E30 ;Draw the second line
G92 E0 ;Reset Extruder
G1 Z2.0 F3000 ;Move Z Axis up

G92 E0
G92 E0
G1 F1500 E-6.5
;LAYER_COUNT:22
;LAYER:0
M107
G0 F6000 X39.247 Y83.362 Z0.2
;TYPE:SKIRT
G1 F1500 E0
G1 F1200 X40.179 Y82.949 E0.10172
G1 X41.141 Y82.61 E0.20349
G1 X42.126 Y82.347 E0.30522
G1 X43.129 Y82.163 E0.40697
G1 X44.578 Y82.037 E0.5521
G1 X45.132 Y82.02 E0.6074
G1 X45.531 Y82.014 E0.64722
G1 X304.282 Y82.014 E26.4655
G1 X304.468 Y82.015 E26.48406
G1 X305.165 Y82.025 E26.55361
G1 X306.184 Y82.08 E26.65543
G1 X307.194 Y82.214 E26.7571
G1 X308.191 Y82.427 E26.85882
G1 X309.169 Y82.718 E26.96063
G1 X310.12 Y83.084 E27.06231
G1 X311.04 Y83.524 E27.16407
G1 X311.923 Y84.034 E27.26581
G1 X312.763 Y84.612 E27.36755
G1 X313.555 Y85.254 E27.46928
G1 X313.935 Y85.601 E27.52063
G1 X314.338 Y85.984 E27.5761
G1 X314.568 Y86.209 E27.60821
G1 X333.688 Y105.304 E30.30448
G1 X333.806 Y105.422 E30.32113
G1 X334.292 Y105.92 E30.39057
G1 X334.975 Y106.677 E30.4923
G1 X335.596 Y107.486 E30.59406
G1 X336.153 Y108.34 E30.6958
G1 X336.64 Y109.236 E30.79755
G1 X337.056 Y110.167 E30.8993
G1 X337.398 Y111.127 E31.00099
G1 X337.663 Y112.112 E31.10277
G1 X337.85 Y113.114 E31.20447
G1 X337.959 Y114.128 E31.30623
G1 X337.986 Y114.775 E31.37085
G1 X337.996 Y115.352 E31.42843
G1 X337.998 Y115.577 E31.45088
G1 X337.998 Y234.332 E43.3003
G1 X337.997 Y234.518 E43.31886
G1 X337.987 Y235.216 E43.38851
G1 X337.932 Y236.234 E43.49024
G1 X337.798 Y237.245 E43.592
G1 X337.585 Y238.242 E43.69373
G1 X337.294 Y239.22 E43.79554
G1 X336.928 Y240.171 E43.89722
G1 X336.489 Y241.091 E43.99893
G1 X335.978 Y241.974 E44.10072
G1 X335.4 Y242.814 E44.20247
G1 X334.758 Y243.606 E44.30419
G1 X334.353 Y244.047 E44.36394
G1 X333.912 Y244.505 E44.42738
G1 X333.725 Y244.695 E44.45398
G1 X314.705 Y263.656 E47.13375
G1 X314.579 Y263.78 E47.15139
G1 X314.043 Y264.3 E47.2259
G1 X313.284 Y264.98 E47.32758
G1 X312.474 Y265.599 E47.4293
G1 X311.618 Y266.153 E47.53104
G1 X310.721 Y266.638 E47.63279
G1 X309.789 Y267.051 E47.73451
G1 X308.827 Y267.39 E47.83628
G1 X307.842 Y267.653 E47.93801
G1 X306.839 Y267.837 E48.03976
G1 X305.44 Y267.961 E48.1799
G1 X304.948 Y267.978 E48.22902
G1 X304.499 Y267.986 E48.27383
G1 X45.686 Y267.986 E74.0983
G1 X45.5 Y267.985 E74.11685
G1 X44.802 Y267.975 E74.18651
G1 X43.784 Y267.92 E74.28823
G1 X42.773 Y267.786 E74.38999
G1 X41.776 Y267.573 E74.49172
G1 X40.798 Y267.282 E74.59353
G1 X39.847 Y266.916 E74.69521
G1 X38.927 Y266.477 E74.79692
G1 X38.044 Y265.966 E74.89872
G1 X37.204 Y265.388 E75.00046
G1 X36.271 Y264.62 E75.12104
G1 X36.115 Y264.479 E75.14202
G1 X35.735 Y264.122 E75.19404
G1 X35.54 Y263.931 E75.22128
G1 X35.452 Y263.843 E75.2337
G1 X16.353 Y244.773 E77.92673
G1 X16.226 Y244.645 E77.94472
G1 X15.699 Y244.104 E78.02008
G1 X15.017 Y243.346 E78.12182
G1 X14.396 Y242.538 E78.2235
G1 X13.84 Y241.683 E78.32527
G1 X13.354 Y240.787 E78.42698
G1 X12.939 Y239.855 E78.52877
G1 X12.598 Y238.894 E78.63052
G1 X12.333 Y237.91 E78.7322
G1 X12.147 Y236.907 E78.83399
G1 X12.039 Y235.893 E78.93574
G1 X12.013 Y235.24 E79.00095
G1 X12.004 Y234.674 E79.05743
G1 X12.002 Y234.467 E79.07808
G1 X12.002 Y115.704 E90.9283
G1 X12.003 Y115.518 E90.94686
G1 X12.013 Y114.82 E91.01652
G1 X12.068 Y113.802 E91.11824
G1 X12.202 Y112.791 E91.22
G1 X12.415 Y111.794 E91.32173
G1 X12.706 Y110.816 E91.42354
G1 X13.072 Y109.865 E91.52522
G1 X13.511 Y108.945 E91.62693
G1 X14.022 Y108.062 E91.72873
G1 X14.6 Y107.222 E91.83047
G1 X15.242 Y106.43 E91.9322
G1 X15.599 Y106.04 E91.98495
G1 X15.98 Y105.64 E92.04007
G1 X16.199 Y105.415 E92.0714
G1 X35.281 Y86.327 E94.7645
G1 X35.423 Y86.187 E94.7844
G1 X35.925 Y85.7 E94.85419
G1 X36.684 Y85.02 E94.95587
G1 X37.494 Y84.4 E95.05765
G1 X38.35 Y83.847 E95.15934
G1 X39.247 Y83.362 E95.26108
G0 F6000 X39.942 Y84.359
G1 F1200 X40.837 Y83.981 E95.35803
G1 X41.76 Y83.678 E95.45496
G1 X42.704 Y83.452 E95.55181
G1 X43.664 Y83.304 E95.64873
G1 X44.615 Y83.237 E95.74386
G1 X45.169 Y83.22 E95.79916
G1 X45.531 Y83.214 E95.83529
G1 X304.282 Y83.214 E121.65357
G1 X304.451 Y83.215 E121.67043
G1 X305.148 Y83.225 E121.73999
G1 X306.118 Y83.279 E121.83692
G1 X307.08 Y83.413 E121.93384
G1 X308.028 Y83.625 E122.03077
G1 X308.956 Y83.914 E122.12775
G1 X309.856 Y84.279 E122.22466
G1 X310.723 Y84.716 E122.32153
G1 X311.551 Y85.224 E122.41846
G1 X312.335 Y85.798 E122.51541
G1 X313.108 Y86.471 E122.61768
G1 X313.511 Y86.854 E122.67316
G1 X313.72 Y87.058 E122.7023
G1 X332.84 Y106.153 E125.39857
G1 X332.947 Y106.261 E125.41374
G1 X333.433 Y106.759 E125.48317
G1 X334.082 Y107.481 E125.58004
G1 X334.67 Y108.255 E125.67703
G1 X335.192 Y109.074 E125.77394
G1 X335.645 Y109.933 E125.87084
G1 X336.025 Y110.827 E125.96777
G1 X336.331 Y111.749 E126.0647
G1 X336.56 Y112.693 E126.16162
G1 X336.711 Y113.652 E126.25849
G1 X336.786 Y114.796 E126.37288
G1 X336.796 Y115.373 E126.43047
G1 X336.798 Y115.577 E126.45082
G1 X336.798 Y234.332 E138.30024
G1 X336.797 Y234.501 E138.31711
G1 X336.787 Y235.199 E138.38676
G1 X336.733 Y236.169 E138.4837
G1 X336.599 Y237.131 E138.58061
G1 X336.387 Y238.079 E138.67754
G1 X336.098 Y239.006 E138.77443
G1 X335.733 Y239.907 E138.87143
G1 X335.296 Y240.774 E138.96831
G1 X334.788 Y241.602 E139.06523
G1 X334.214 Y242.386 E139.16219
G1 X333.488 Y243.215 E139.27214
G1 X333.047 Y243.673 E139.33558
G1 X332.878 Y243.845 E139.35964
G1 X313.858 Y262.806 E142.03941
G1 X313.743 Y262.918 E142.05543
G1 X313.207 Y263.438 E142.12994
G1 X312.483 Y264.085 E142.22683
G1 X311.708 Y264.671 E142.32377
G1 X310.887 Y265.19 E142.42069
G1 X310.026 Y265.641 E142.51767
G1 X309.132 Y266.019 E142.61452
G1 X308.209 Y266.322 E142.71146
G1 X307.264 Y266.548 E142.80841
G1 X306.304 Y266.696 E142.90533
G1 X305.398 Y266.762 E142.99597
G1 X304.906 Y266.779 E143.04509
G1 X304.499 Y266.786 E143.08571
G1 X45.686 Y266.786 E168.91017
G1 X45.517 Y266.785 E168.92704
G1 X44.819 Y266.775 E168.99669
G1 X43.849 Y266.721 E169.09363
G1 X42.887 Y266.587 E169.19054
G1 X41.939 Y266.375 E169.28747
G1 X41.012 Y266.086 E169.38436
G1 X40.111 Y265.721 E169.48136
G1 X39.244 Y265.284 E169.57823
G1 X38.416 Y264.776 E169.67516
G1 X37.632 Y264.202 E169.77211
G1 X37.076 Y263.73 E169.84489
G1 X36.92 Y263.589 E169.86587
G1 X36.575 Y263.265 E169.91309
G1 X36.38 Y263.074 E169.94033
G1 X36.299 Y262.994 E169.95169
G1 X17.2 Y243.924 E172.64472
G1 X17.085 Y243.808 E172.66102
G1 X16.558 Y243.267 E172.73638
G1 X15.91 Y242.544 E172.83325
G1 X15.323 Y241.77 E172.93018
G1 X14.802 Y240.95 E173.02712
G1 X14.35 Y240.09 E173.12406
G1 X13.97 Y239.196 E173.22099
G1 X13.665 Y238.274 E173.31789
G1 X13.437 Y237.33 E173.41479
G1 X13.287 Y236.37 E173.51174
G1 X13.212 Y235.221 E173.62663
G1 X13.203 Y234.655 E173.68312
G1 X13.202 Y234.467 E173.70188
G1 X13.202 Y115.704 E185.5521
G1 X13.203 Y115.535 E185.56896
G1 X13.213 Y114.837 E185.63861
G1 X13.267 Y113.867 E185.73555
G1 X13.401 Y112.905 E185.83246
G1 X13.613 Y111.957 E185.92939
G1 X13.902 Y111.03 E186.02628
G1 X14.267 Y110.129 E186.12328
G1 X14.704 Y109.262 E186.22016
G1 X15.212 Y108.434 E186.31708
G1 X15.786 Y107.65 E186.41404
G1 X16.468 Y106.868 E186.51757
G1 X16.849 Y106.468 E186.57269
G1 X17.048 Y106.263 E186.6012
G1 X36.13 Y87.175 E189.2943
G1 X36.259 Y87.049 E189.31229
G1 X36.761 Y86.562 E189.38208
G1 X37.485 Y85.914 E189.47903
G1 X38.26 Y85.329 E189.57592
G1 X39.081 Y84.81 E189.67283
G1 X39.942 Y84.359 E189.76982
G0 F6000 X40.629 Y85.364
G1 F1200 X41.484 Y85.023 E189.86166
G1 X42.365 Y84.758 E189.95346
G1 X43.267 Y84.57 E190.0454
G1 X44.181 Y84.461 E190.13724
G1 X44.652 Y84.436 E190.1843
G1 X45.206 Y84.419 E190.23961
G1 X45.531 Y84.414 E190.27204
G1 X304.282 Y84.414 E216.09032
G1 X304.434 Y84.415 E216.10549
G1 X305.131 Y84.425 E216.17504
G1 X306.05 Y84.478 E216.26689
G1 X306.961 Y84.611 E216.35876
G1 X307.857 Y84.822 E216.4506
G1 X308.732 Y85.11 E216.54252
G1 X309.578 Y85.474 E216.63442
G1 X310.389 Y85.909 E216.72624
G1 X311.16 Y86.412 E216.8181
G1 X311.884 Y86.981 E216.90998
G1 X312.281 Y87.34 E216.96339
G1 X312.684 Y87.723 E217.01886
G1 X312.872 Y87.907 E217.04511
G1 X331.992 Y107.002 E219.74139
G1 X332.088 Y107.099 E219.755
G1 X332.574 Y107.597 E219.82443
G1 X333.188 Y108.283 E219.9163
G1 X333.74 Y109.02 E220.00817
G1 X334.226 Y109.802 E220.10004
G1 X334.642 Y110.623 E220.19188
G1 X334.985 Y111.477 E220.28371
G1 X335.253 Y112.358 E220.37559
G1 X335.444 Y113.259 E220.46749
G1 X335.556 Y114.172 E220.55927
G1 X335.586 Y114.816 E220.6236
G1 X335.596 Y115.393 E220.68119
G1 X335.598 Y115.577 E220.69955
G1 X335.598 Y234.332 E232.54897
G1 X335.597 Y234.484 E232.56413
G1 X335.587 Y235.182 E232.63379
G1 X335.534 Y236.101 E232.72564
G1 X335.401 Y237.012 E232.8175
G1 X335.19 Y237.908 E232.90935
G1 X334.902 Y238.782 E233.00117
G1 X334.539 Y239.629 E233.09312
G1 X334.104 Y240.44 E233.18495
G1 X333.6 Y241.21 E233.27677
G1 X333.031 Y241.934 E233.36866
G1 X332.624 Y242.382 E233.42905
G1 X332.183 Y242.84 E233.49249
G1 X332.031 Y242.995 E233.51415
G1 X313.011 Y261.956 E236.19392
G1 X312.908 Y262.057 E236.20831
G1 X312.372 Y262.577 E236.28283
G1 X311.684 Y263.189 E236.37471
G1 X310.945 Y263.739 E236.46663
G1 X310.162 Y264.222 E236.55842
G1 X309.34 Y264.636 E236.65026
G1 X308.484 Y264.977 E236.7422
G1 X307.603 Y265.242 E236.83399
G1 X306.702 Y265.43 E236.92583
G1 X305.357 Y265.563 E237.06069
G1 X304.865 Y265.58 E237.10981
G1 X304.499 Y265.586 E237.14634
G1 X45.686 Y265.586 E262.9708
G1 X45.534 Y265.585 E262.98597
G1 X44.836 Y265.575 E263.05562
G1 X43.917 Y265.522 E263.14748
G1 X43.006 Y265.389 E263.23934
G1 X42.11 Y265.178 E263.33119
G1 X41.236 Y264.89 E263.42301
G1 X40.389 Y264.527 E263.51496
G1 X39.578 Y264.092 E263.60678
G1 X38.808 Y263.588 E263.69861
G1 X37.88 Y262.84 E263.81754
G1 X37.724 Y262.699 E263.83852
G1 X37.415 Y262.408 E263.88088
G1 X37.22 Y262.217 E263.90811
G1 X37.147 Y262.145 E263.91834
G1 X18.048 Y243.075 E266.61137
G1 X17.945 Y242.97 E266.62605
G1 X17.418 Y242.429 E266.70141
G1 X16.805 Y241.743 E266.7932
G1 X16.254 Y241.005 E266.8851
G1 X15.768 Y240.223 E266.97697
G1 X15.353 Y239.401 E267.06885
G1 X15.01 Y238.547 E267.16068
G1 X14.743 Y237.666 E267.25253
G1 X14.553 Y236.765 E267.34441
G1 X14.443 Y235.851 E267.43627
G1 X14.412 Y235.202 E267.5011
G1 X14.403 Y234.636 E267.55759
G1 X14.402 Y234.467 E267.57445
G1 X14.402 Y115.704 E279.42467
G1 X14.403 Y115.552 E279.43984
G1 X14.413 Y114.854 E279.50949
G1 X14.466 Y113.935 E279.60134
G1 X14.599 Y113.024 E279.6932
G1 X14.81 Y112.128 E279.78505
G1 X15.098 Y111.254 E279.87687
G1 X15.461 Y110.407 E279.96882
G1 X15.896 Y109.596 E280.06065
G1 X16.4 Y108.826 E280.15248
G1 X16.969 Y108.102 E280.24436
G1 X17.337 Y107.695 E280.29911
G1 X17.718 Y107.295 E280.35423
G1 X17.896 Y107.112 E280.3797
G1 X36.978 Y88.024 E283.0728
G1 X37.094 Y87.91 E283.08903
G1 X37.596 Y87.423 E283.15881
G1 X38.284 Y86.811 E283.25069
G1 X39.023 Y86.261 E283.34261
G1 X39.806 Y85.778 E283.43441
G1 X40.629 Y85.364 E283.52633
G1 F1500 E277.02633
G0 F6000 X83.059 Y153.977
G1 F1500 E283.52633
G1 F1200 X83.408 Y153.977 E283.56116
G1 X83.059 Y154.326 E283.6104
G1 X83.059 Y153.977 E283.64523
G0 F6000 X83.059 Y158.725
G1 F1200 X83.239 Y158.905 E283.67063
G1 X83.239 Y163.044 E284.08362
G1 X83.059 Y163.224 E284.10902
G1 X83.059 Y158.725 E284.55793
G0 F6000 X83.059 Y167.624
G1 F1200 X83.458 Y168.023 E284.61423
G1 X83.059 Y168.023 E284.65405
G1 X83.059 Y167.624 E284.69386
G0 F6000 X99.068 Y167.637
G1 F1200 X99.068 Y168.023 E284.73237
G1 X98.682 Y168.023 E284.77089
G1 X99.068 Y167.637 E284.82536
G0 F6000 X107.059 Y167.624
G1 F1200 X107.458 Y168.023 E284.88166
G1 X107.059 Y168.023 E284.92147
G1 X107.059 Y167.624 E284.96128
G0 F6000 X107.059 Y158.725
G1 F1200 X107.239 Y158.905 E284.98668
G1 X107.239 Y163.044 E285.39968
G1 X107.059 Y163.224 E285.42508
G1 X107.059 Y158.725 E285.87399
G0 F6000 X107.059 Y153.977
G1 F1200 X107.408 Y153.977 E285.90881
G1 X107.059 Y154.326 E285.95806
G1 X107.059 Y153.977 E285.99288
G0 F6000 X98.732 Y153.977
G1 F1200 X99.068 Y153.977 E286.02641
G1 X99.068 Y154.313 E286.05993
G1 X98.732 Y153.977 E286.10735
G0 F6000 X99.068 Y158.738
G1 F1200 X99.068 Y163.211 E286.55367
G1 X98.901 Y163.044 E286.57723
G1 X98.901 Y158.905 E286.99022
G1 X99.068 Y158.738 E287.01379
G0 F6000 X122.901 Y158.905
G1 F1200 X123.068 Y158.738 E287.03735
G1 X123.068 Y163.211 E287.48367
G1 X122.901 Y163.044 E287.50724
G1 X122.901 Y158.905 E287.92023
G0 F6000 X122.732 Y153.977
G1 F1200 X123.068 Y153.977 E287.95375
G1 X123.068 Y154.313 E287.98728
G1 X122.732 Y153.977 E288.03469
G0 F6000 X131.059 Y153.977
G1 F1200 X131.408 Y153.977 E288.06952
G1 X131.059 Y154.326 E288.11876
G1 X131.059 Y153.977 E288.15359
G0 F6000 X131.059 Y158.725
G1 F1200 X131.239 Y158.905 E288.17899
G1 X131.239 Y163.044 E288.59198
G1 X131.059 Y163.224 E288.61738
G1 X131.059 Y158.725 E289.06629
G0 F6000 X131.059 Y167.624
G1 F1200 X131.458 Y168.023 E289.12259
G1 X131.059 Y168.023 E289.16241
G1 X131.059 Y167.624 E289.20222
G0 F6000 X123.068 Y167.637
G1 F1200 X123.068 Y168.023 E289.24073
G1 X122.682 Y168.023 E289.27925
G1 X123.068 Y167.637 E289.33372
G0 F6000 X146.682 Y168.023
G1 F1200 X147.068 Y167.637 E289.38819
G1 X147.068 Y168.023 E289.4267
G1 X146.682 Y168.023 E289.46522
G0 F6000 X146.901 Y158.905
G1 F1200 X147.068 Y158.738 E289.48878
G1 X147.068 Y163.211 E289.9351
G1 X146.901 Y163.044 E289.95867
G1 X146.901 Y158.905 E290.37166
G0 F6000 X146.732 Y153.977
G1 F1200 X147.068 Y153.977 E290.40518
G1 X147.068 Y154.313 E290.43871
G1 X146.732 Y153.977 E290.48612
G1 F1500 E283.98612
G0 F6000 X184.059 Y152.977
G1 F1500 E290.48612
G1 F1200 X184.408 Y152.977 E290.52095
G1 X184.059 Y153.326 E290.57019
G1 X184.059 Y152.977 E290.60502
G0 F6000 X184.059 Y157.725
G1 F1200 X184.239 Y157.905 E290.63042
G1 X184.239 Y162.044 E291.04341
G1 X184.059 Y162.224 E291.06881
G1 X184.059 Y157.725 E291.51772
G0 F6000 X184.059 Y166.624
G1 F1200 X184.458 Y167.023 E291.57402
G1 X184.059 Y167.023 E291.61384
G1 X184.059 Y166.624 E291.65365
G0 F6000 X199.682 Y167.023
G1 F1200 X200.068 Y166.637 E291.70812
G1 X200.068 Y167.023 E291.74663
G1 X199.682 Y167.023 E291.78515
G0 F6000 X208.059 Y166.624
G1 F1200 X208.458 Y167.023 E291.84145
G1 X208.059 Y167.023 E291.88126
G1 X208.059 Y166.624 E291.92108
G0 F6000 X208.059 Y157.725
G1 F1200 X208.239 Y157.905 E291.94648
G1 X208.239 Y162.044 E292.35947
G1 X208.059 Y162.224 E292.38487
G1 X208.059 Y157.725 E292.83378
G0 F6000 X208.059 Y152.977
G1 F1200 X208.408 Y152.977 E292.8686
G1 X208.059 Y153.326 E292.91785
G1 X208.059 Y152.977 E292.95267
G0 F6000 X199.732 Y152.977
G1 F1200 X200.068 Y152.977 E292.9862
G1 X200.068 Y153.313 E293.01973
G1 X199.732 Y152.977 E293.06714
G0 F6000 X199.901 Y157.905
G1 F1200 X200.068 Y157.738 E293.0907
G1 X200.068 Y162.211 E293.53702
G1 X199.901 Y162.044 E293.56059
G1 X199.901 Y157.905 E293.97358
G0 F6000 X199.682 Y145.023
G1 F1200 X200.068 Y144.637 E294.02805
G1 X200.068 Y145.023 E294.06656
G1 X199.682 Y145.023 E294.10508
G0 F6000 X208.059 Y144.624
G1 F1200 X208.458 Y145.023 E294.16138
G1 X208.059 Y145.023 E294.20119
G1 X208.059 Y144.624 E294.24101
G0 F6000 X208.059 Y135.725
G1 F1200 X208.239 Y135.905 E294.26641
G1 X208.239 Y140.044 E294.6794
G1 X208.059 Y140.224 E294.7048
G1 X208.059 Y135.725 E295.15371
G0 F6000 X208.059 Y130.977
G1 F1200 X208.408 Y130.977 E295.18853
G1 X208.059 Y131.326 E295.23778
G1 X208.059 Y130.977 E295.2726
