;FLAVOR:Marlin
;TIME:991
;Filament used: 2.16173m
;Layer height: 0.5
;MINX:138.738
;MINY:148.738
;MINZ:0.2
;MAXX:211.262
;MAXY:201.262
;MAXZ:8.7
;Generated with Cura_SteamEngine 4.4.1
M140 S55
M105
M190 S55
M104 S200
M105
M109 S200
M82 ;absolute extrusion mode
M201 X500.00 Y500.00 Z100.00 E5000.00 ;Setup machine max acceleration
M203 X500.00 Y500.00 Z10.00 E50.00 ;Setup machine max feedrate
M204 P500.00 R1000.00 T500.00 ;Setup Print/Retract/Travel acceleration
M205 X8.00 Y8.00 Z0.40 E5.00 ;Setup Jerk
M220 S100 ;Reset Feedrate
M221 S100 ;Reset Flowrate

G28 ;Home
M420 S1 Z2 ;Enable ABL using saved Mesh and Fade Height

G92 E0 ;Reset Extruder
G1 Z2.0 F3000 ;Move Z Axis up
G1 X10.1 Y20 Z0.28 F5000.0 ;Move to start position
G1 X10.1 Y200.0 Z0.28 F1500.0 E15 ;Draw the first line
G1 X10.4 Y200.0 Z0.28 F5000.0 ;Move to side a little
G1 X10.4 Y20 Z0.28 F1500.0 E30 ;Draw the second line
G92 E0 ;Reset Extruder
G1 Z2.0 F3000 ;Move Z Axis up

G92 E0
G92 E0
G1 F1500 E-6.5
;LAYER_COUNT:18
;LAYER:0
M107
G0 F6000 X142.672 Y152.439 Z0.2
;TYPE:SKIRT
G1 F1500 E0
G1 F1200 X143.429 Y151.756 E0.10173
G1 X144.238 Y151.135 E0.2035
G1 X145.092 Y150.579 E0.30518
G1 X145.988 Y150.092 E0.40693
G1 X146.919 Y149.677 E0.50864
G1 X147.88 Y149.335 E0.61042
G1 X148.865 Y149.071 E0.71217
G1 X149.867 Y148.884 E0.81388
G1 X151.383 Y148.752 E0.96572
G1 X151.704 Y148.743 E0.99776
G1 X152.068 Y148.738 E1.03408
G1 X197.555 Y148.738 E5.57279
G1 X197.741 Y148.739 E5.59135
G1 X198.439 Y148.749 E5.66101
G1 X199.457 Y148.804 E5.76273
G1 X200.468 Y148.938 E5.86449
G1 X201.465 Y149.151 E5.96622
G1 X202.443 Y149.442 E6.06803
G1 X203.394 Y149.808 E6.16971
G1 X204.314 Y150.247 E6.27142
G1 X205.197 Y150.758 E6.37322
G1 X206.037 Y151.336 E6.47496
G1 X206.829 Y151.978 E6.57669
G1 X207.568 Y152.68 E6.67839
G1 X208.25 Y153.438 E6.78013
G1 X208.871 Y154.247 E6.88189
G1 X209.426 Y155.102 E6.9836
G1 X209.912 Y155.998 E7.08531
G1 X210.327 Y156.93 E7.18711
G1 X210.668 Y157.891 E7.28886
G1 X210.932 Y158.876 E7.39061
G1 X211.118 Y159.878 E7.4923
G1 X211.248 Y161.383 E7.64303
G1 X211.257 Y161.703 E7.67497
G1 X211.262 Y162.068 E7.71139
G1 X211.262 Y187.526 E10.2516
G1 X211.261 Y187.687 E10.26767
G1 X211.252 Y188.414 E10.34021
G1 X211.199 Y189.432 E10.44193
G1 X211.067 Y190.443 E10.54366
G1 X210.856 Y191.441 E10.64544
G1 X210.568 Y192.419 E10.74717
G1 X210.203 Y193.371 E10.8489
G1 X209.765 Y194.292 E10.95067
G1 X209.257 Y195.175 E11.05231
G1 X208.68 Y196.016 E11.15408
G1 X208.04 Y196.81 E11.25584
G1 X207.339 Y197.55 E11.35754
G1 X206.583 Y198.234 E11.45927
G1 X205.775 Y198.856 E11.56102
G1 X204.921 Y199.413 E11.66275
G1 X204.025 Y199.901 E11.76455
G1 X203.095 Y200.318 E11.86625
G1 X202.134 Y200.66 E11.96803
G1 X201.15 Y200.926 E12.06974
G1 X200.148 Y201.114 E12.17146
G1 X199.134 Y201.223 E12.27322
G1 X198.617 Y201.248 E12.32487
G1 X198.296 Y201.257 E12.35691
G1 X197.932 Y201.262 E12.39324
G1 X152.445 Y201.262 E16.93195
G1 X152.277 Y201.261 E16.94871
G1 X151.579 Y201.252 E17.01836
G1 X150.561 Y201.199 E17.12008
G1 X149.55 Y201.066 E17.22182
G1 X148.553 Y200.854 E17.32353
G1 X147.575 Y200.565 E17.42529
G1 X146.623 Y200.201 E17.52698
G1 X145.702 Y199.762 E17.62879
G1 X144.819 Y199.253 E17.73048
G1 X143.978 Y198.676 E17.83225
G1 X143.185 Y198.035 E17.93399
G1 X142.445 Y197.334 E18.0357
G1 X141.762 Y196.577 E18.13744
G1 X141.14 Y195.769 E18.23918
G1 X140.584 Y194.915 E18.34086
G1 X140.096 Y194.019 E18.44266
G1 X139.68 Y193.089 E18.54432
G1 X139.338 Y192.128 E18.6461
G1 X139.072 Y191.144 E18.74781
G1 X138.885 Y190.141 E18.84961
G1 X138.776 Y189.128 E18.95127
G1 X138.752 Y188.604 E19.00361
G1 X138.743 Y188.271 E19.03685
G1 X138.738 Y187.92 E19.07188
G1 X138.738 Y162.412 E21.61708
G1 X138.739 Y162.236 E21.63464
G1 X138.748 Y161.571 E21.701
G1 X138.802 Y160.553 E21.80272
G1 X138.935 Y159.542 E21.90447
G1 X139.148 Y158.545 E22.00619
G1 X139.437 Y157.567 E22.10795
G1 X139.803 Y156.615 E22.20972
G1 X140.242 Y155.695 E22.31143
G1 X140.751 Y154.812 E22.41313
G1 X141.329 Y153.972 E22.51487
G1 X141.97 Y153.179 E22.61661
G1 X142.672 Y152.439 E22.71839
G0 F6000 X143.844 Y152.984
G1 F1200 X144.592 Y152.364 E22.81533
G1 X145.388 Y151.807 E22.91227
G1 X146.227 Y151.318 E23.00917
G1 X147.104 Y150.899 E23.10615
G1 X148.012 Y150.554 E23.20307
G1 X148.945 Y150.285 E23.29995
G1 X149.897 Y150.093 E23.39686
G1 X150.862 Y149.98 E23.4938
G1 X151.416 Y149.952 E23.54915
G1 X151.737 Y149.943 E23.5812
G1 X152.068 Y149.938 E23.61423
G1 X197.555 Y149.938 E28.15294
G1 X197.724 Y149.939 E28.1698
G1 X198.422 Y149.949 E28.23945
G1 X199.392 Y150.003 E28.33639
G1 X200.354 Y150.137 E28.43331
G1 X201.302 Y150.349 E28.53024
G1 X202.229 Y150.638 E28.62712
G1 X203.13 Y151.003 E28.72412
G1 X203.997 Y151.44 E28.821
G1 X204.825 Y151.948 E28.91793
G1 X205.609 Y152.522 E29.01488
G1 X206.343 Y153.158 E29.11179
G1 X207.022 Y153.852 E29.20867
G1 X207.642 Y154.6 E29.30561
G1 X208.198 Y155.397 E29.40257
G1 X208.687 Y156.236 E29.49947
G1 X209.105 Y157.113 E29.59641
G1 X209.449 Y158.022 E29.69339
G1 X209.718 Y158.955 E29.79027
G1 X209.909 Y159.908 E29.88725
G1 X210.02 Y160.872 E29.98408
G1 X210.048 Y161.416 E30.03843
G1 X210.057 Y161.736 E30.07037
G1 X210.062 Y162.068 E30.1035
G1 X210.062 Y187.526 E32.64371
G1 X210.061 Y187.672 E32.65828
G1 X210.052 Y188.399 E32.73083
G1 X210 Y189.369 E32.82775
G1 X209.868 Y190.332 E32.92474
G1 X209.658 Y191.28 E33.02163
G1 X209.371 Y192.208 E33.11855
G1 X209.008 Y193.109 E33.21547
G1 X208.572 Y193.977 E33.31239
G1 X208.066 Y194.806 E33.4093
G1 X207.494 Y195.591 E33.50622
G1 X206.859 Y196.326 E33.60314
G1 X206.166 Y197.007 E33.70008
G1 X205.419 Y197.628 E33.79701
G1 X204.623 Y198.186 E33.89401
G1 X203.785 Y198.676 E33.99087
G1 X202.909 Y199.096 E34.08781
G1 X202.001 Y199.442 E34.18476
G1 X201.068 Y199.712 E34.28168
G1 X200.116 Y199.905 E34.3786
G1 X199.151 Y200.019 E34.47556
G1 X198.584 Y200.048 E34.53221
G1 X198.263 Y200.057 E34.56425
G1 X197.932 Y200.062 E34.59728
G1 X152.445 Y200.062 E39.13599
G1 X152.293 Y200.061 E39.15116
G1 X151.595 Y200.052 E39.22081
G1 X150.625 Y200 E39.31774
G1 X149.663 Y199.867 E39.41464
G1 X148.714 Y199.657 E39.51162
G1 X147.787 Y199.369 E39.60848
G1 X146.886 Y199.005 E39.70544
G1 X146.018 Y198.569 E39.80236
G1 X145.189 Y198.063 E39.89927
G1 X144.404 Y197.49 E39.99625
G1 X143.669 Y196.855 E40.09316
G1 X142.989 Y196.161 E40.19011
G1 X142.368 Y195.414 E40.28704
G1 X141.811 Y194.618 E40.38398
G1 X141.321 Y193.78 E40.48084
G1 X140.902 Y192.903 E40.57782
G1 X140.556 Y191.996 E40.67468
G1 X140.286 Y191.062 E40.7717
G1 X140.094 Y190.11 E40.8686
G1 X139.981 Y189.145 E40.96554
G1 X139.951 Y188.572 E41.0228
G1 X139.942 Y188.239 E41.05604
G1 X139.938 Y187.92 E41.08787
G1 X139.938 Y162.412 E43.63307
G1 X139.939 Y162.252 E43.64903
G1 X139.948 Y161.587 E43.71539
G1 X140.001 Y160.617 E43.81232
G1 X140.134 Y159.655 E43.90923
G1 X140.345 Y158.707 E44.00613
G1 X140.634 Y157.779 E44.10311
G1 X140.998 Y156.879 E44.19998
G1 X141.435 Y156.011 E44.29695
G1 X141.942 Y155.182 E44.39391
G1 X142.515 Y154.398 E44.49081
G1 X143.15 Y153.664 E44.58765
G1 X143.844 Y152.984 E44.6846
G0 F6000 X144.327 Y154.177
G1 F1200 X145.012 Y153.561 E44.77652
G1 X145.748 Y153.008 E44.86838
G1 X146.529 Y152.52 E44.96027
G1 X147.349 Y152.102 E45.0521
G1 X148.203 Y151.757 E45.14401
G1 X149.083 Y151.487 E45.23585
G1 X149.983 Y151.295 E45.32768
G1 X150.897 Y151.181 E45.41958
G1 X151.45 Y151.151 E45.47484
G1 X151.771 Y151.142 E45.50688
G1 X152.068 Y151.138 E45.53652
G1 X197.555 Y151.138 E50.07523
G1 X197.707 Y151.139 E50.0904
G1 X198.405 Y151.149 E50.16005
G1 X199.324 Y151.202 E50.2519
G1 X200.235 Y151.335 E50.34377
G1 X201.131 Y151.546 E50.43562
G1 X202.005 Y151.834 E50.52744
G1 X202.852 Y152.197 E50.61939
G1 X203.663 Y152.632 E50.71121
G1 X204.433 Y153.136 E50.80304
G1 X205.157 Y153.705 E50.89492
G1 X205.829 Y154.335 E50.98683
G1 X206.444 Y155.02 E51.07869
G1 X206.997 Y155.756 E51.17054
G1 X207.484 Y156.537 E51.26238
G1 X207.901 Y157.358 E51.35426
G1 X208.246 Y158.212 E51.44617
G1 X208.515 Y159.092 E51.53798
G1 X208.707 Y159.993 E51.6299
G1 X208.82 Y160.906 E51.7217
G1 X208.849 Y161.45 E51.77606
G1 X208.858 Y161.77 E51.808
G1 X208.862 Y162.068 E51.83774
G1 X208.862 Y187.526 E54.37795
G1 X208.861 Y187.657 E54.39102
G1 X208.852 Y188.384 E54.46356
G1 X208.801 Y189.303 E54.5554
G1 X208.67 Y190.215 E54.64734
G1 X208.46 Y191.111 E54.73916
G1 X208.174 Y191.986 E54.83102
G1 X207.813 Y192.833 E54.92289
G1 X207.379 Y193.645 E55.01475
G1 X206.877 Y194.417 E55.10664
G1 X206.309 Y195.142 E55.19854
G1 X205.681 Y195.815 E55.29038
G1 X204.997 Y196.431 E55.38223
G1 X204.262 Y196.985 E55.47407
G1 X203.482 Y197.474 E55.56593
G1 X202.662 Y197.893 E55.65781
G1 X201.809 Y198.239 E55.74966
G1 X200.929 Y198.51 E55.84153
G1 X200.029 Y198.703 E55.93338
G1 X199.115 Y198.818 E56.0253
G1 X198.55 Y198.849 E56.08176
G1 X198.229 Y198.858 E56.1138
G1 X197.932 Y198.862 E56.14344
G1 X152.445 Y198.862 E60.68215
G1 X152.308 Y198.861 E60.69582
G1 X151.61 Y198.852 E60.76547
G1 X150.691 Y198.8 E60.85732
G1 X149.78 Y198.669 E60.94915
G1 X148.884 Y198.459 E61.04098
G1 X148.009 Y198.172 E61.13286
G1 X147.162 Y197.81 E61.22477
G1 X146.35 Y197.376 E61.31664
G1 X145.579 Y196.874 E61.40844
G1 X144.854 Y196.306 E61.50034
G1 X144.181 Y195.677 E61.59225
G1 X143.566 Y194.993 E61.68403
G1 X143.012 Y194.258 E61.77587
G1 X142.524 Y193.477 E61.86776
G1 X142.105 Y192.657 E61.95965
G1 X141.759 Y191.804 E62.05149
G1 X141.489 Y190.924 E62.14334
G1 X141.296 Y190.023 E62.23528
G1 X141.182 Y189.11 E62.32709
G1 X141.151 Y188.539 E62.38415
G1 X141.142 Y188.206 E62.41739
G1 X141.138 Y187.92 E62.44593
G1 X141.138 Y162.412 E64.99112
G1 X141.139 Y162.269 E65.00539
G1 X141.148 Y161.604 E65.07175
G1 X141.2 Y160.684 E65.1637
G1 X141.332 Y159.773 E65.25555
G1 X141.543 Y158.877 E65.3474
G1 X141.83 Y158.002 E65.43928
G1 X142.193 Y157.156 E65.53114
G1 X142.627 Y156.344 E65.62301
G1 X143.13 Y155.573 E65.71486
G1 X143.699 Y154.849 E65.80674
G1 X144.327 Y154.177 E65.89852
G1 F1500 E59.39852
;MESH:keybox_test_print.stl
G0 F6000 X152.952 Y161.073
G0 X152.952 Y162.952
G0 X162.182 Y166.52
G0 X165.736 Y182.487
G0 X166.536 Y183.487
G0 X185.226 Y185.262
;TYPE:WALL-INNER
G1 F1500 E65.89852
G1 F1200 X164.764 Y185.262 E67.94022
G1 X163.964 Y185.262 E68.02005
G1 X154.738 Y185.262 E68.94062
G1 X154.738 Y164.738 E70.98851
G1 X163.964 Y164.738 E71.90909
G1 X164.764 Y164.738 E71.98891
G1 X185.226 Y164.738 E74.03062
G1 X186.026 Y164.738 E74.11044
G1 X195.262 Y164.738 E75.03202
G1 X195.262 Y185.262 E77.07991
G1 X186.026 Y185.262 E78.00148
G1 X185.226 Y185.262 E78.0813
G0 F6000 X184.026 Y184.059
G1 F1200 X184.026 Y183.059 E78.18109
G1 X184.826 Y183.059 E78.26091
G1 X184.826 Y175.898 E78.97544
G1 X184.026 Y175.898 E79.05526
G1 X184.026 Y174.161 E79.22858
G1 X184.826 Y174.161 E79.3084
G1 X184.826 Y167 E80.02293
G1 X184.026 Y167 E80.10276
G1 X184.026 Y166 E80.20254
G1 X165.964 Y166 E82.00477
G1 X165.964 Y167 E82.10455
G1 X165.164 Y167 E82.18437
G1 X165.164 Y174.161 E82.8989
G1 X165.964 Y174.161 E82.97873
G1 X165.964 Y175.898 E83.15205
G1 X165.164 Y175.898 E83.23187
G1 X165.164 Y183.059 E83.9464
G1 X165.964 Y183.059 E84.02622
G1 X165.964 Y184.059 E84.126
G1 X184.026 Y184.059 E85.92824
G1 F1500 E79.42824
G0 F6000 X183.496 Y182.529
G0 X182.826 Y181.859
;TYPE:WALL-OUTER
G1 F1500 E85.92824
G1 F1200 X183.626 Y181.859 E86.00806
G1 X183.626 Y177.098 E86.48311
G1 X182.826 Y177.098 E86.56294
G1 X182.826 Y172.961 E86.97573
G1 X183.626 Y172.961 E87.05555
G1 X183.626 Y168.2 E87.53061
G1 X182.826 Y168.2 E87.61043
G1 X182.826 Y167.2 E87.71021
G1 X167.164 Y167.2 E89.27297
G1 X167.164 Y168.2 E89.37275
G1 X166.364 Y168.2 E89.45258
G1 X166.364 Y172.961 E89.92763
G1 X167.164 Y172.961 E90.00746
G1 X167.164 Y177.098 E90.42025
G1 X166.364 Y177.098 E90.50007
G1 X166.364 Y181.859 E90.97513
G1 X167.164 Y181.859 E91.05495
G1 X167.164 Y182.859 E91.15473
G1 X182.826 Y182.859 E92.71749
G1 X182.826 Y181.859 E92.81727
G0 F6000 X183.496 Y182.529
G0 X187.226 Y184.062
;TYPE:WALL-INNER
G1 F1200 X187.226 Y165.938 E94.62569
G1 X194.062 Y165.938 E95.30779
G1 X194.062 Y184.062 E97.11621
G1 X187.226 Y184.062 E97.79831
G0 F6000 X186.026 Y184.259
G1 F1200 X186.026 Y165.8 E99.64016
G1 X185.226 Y165.8 E99.71086
G1 X185.226 Y164.8 E99.78511
G1 X164.764 Y164.8 E99.89069
G1 X164.764 Y165.8 E99.99047
G1 X163.964 Y165.8 E100.06117
G1 X163.964 Y184.259 E101.90302
G1 X164.764 Y184.259 E101.96979
G1 X164.764 Y185.259 E102.04303
G1 X185.226 Y185.259 E102.04813
G1 X185.226 Y184.259 E102.14791
G1 X186.026 Y184.259 E102.21469
G0 F6000 X196.462 Y186.462
G1 F1200 X153.538 Y186.462 E106.49766
G1 X153.538 Y163.538 E108.78503
G1 X196.462 Y163.538 E113.068
G1 X196.462 Y186.462 E115.35537
G1 F1500 E108.85537
G0 F6000 X162.764 Y184.062
G1 F1500 E115.35537
G1 F1200 X155.938 Y184.062 E116.03647
G1 X155.938 Y165.938 E117.84489
G1 X162.764 Y165.938 E118.52599
G1 X162.764 Y184.062 E120.33441
G1 F1500 E113.83441
G0 F6000 X153.008 Y186.992
G0 X152.338 Y187.662
;TYPE:WALL-OUTER
G1 F1500 E120.33441
G1 F1200 X152.338 Y162.338 E122.86125
G1 X197.662 Y162.338 E127.3837
G1 X197.662 Y187.662 E129.91054
G1 X152.338 Y187.662 E134.43298
G0 F6000 X153.008 Y186.992
G0 X156.448 Y182.872
G0 X157.128 Y182.872
;TYPE:SKIN
G1 F1200 X157.128 Y167.128 E136.00393
G1 X161.574 Y167.128 E136.44755
G1 X161.574 Y182.872 E138.01849
G1 X157.128 Y182.872 E138.46212
G0 F6000 X156.448 Y182.872
G0 X156.52 Y183.48
G0 X158.632 Y183.552
G0 X158.632 Y182.391
G1 F1200 X157.607 Y181.366 E138.60676
G0 F6000 X156.448 Y181.366
G0 X156.448 Y179.669
G0 X157.607 Y179.669
G1 F1200 X160.329 Y182.391 E138.99086
G0 F6000 X160.329 Y183.552
G0 X162.182 Y183.48
G0 X162.254 Y181.459
G0 X161.094 Y181.459
G1 F1200 X157.607 Y177.972 E139.48291
G0 F6000 X156.448 Y177.972
G0 X156.448 Y176.275
G0 X157.607 Y176.275
G1 F1200 X161.094 Y179.762 E139.97497
G0 F6000 X162.254 Y179.762
G0 X162.254 Y178.065
G0 X161.094 Y178.065
G1 F1200 X157.607 Y174.578 E140.46702
G0 F6000 X156.448 Y174.578
G0 X156.448 Y172.881
G0 X157.607 Y172.881
G1 F1200 X161.094 Y176.367 E140.959
G0 F6000 X162.254 Y176.367
G0 X162.254 Y174.67
G0 X161.094 Y174.67
G1 F1200 X157.607 Y171.184 E141.45099
G0 F6000 X156.448 Y171.184
G0 X156.448 Y169.487
G0 X157.607 Y169.487
G1 F1200 X161.094 Y172.973 E141.94297
G0 F6000 X162.254 Y172.973
G0 X162.254 Y171.276
G0 X161.094 Y171.276
G1 F1200 X157.607 Y167.79 E142.43495
G0 F6000 X156.448 Y167.79
G0 X156.52 Y166.52
G0 X159.122 Y166.448
G0 X159.122 Y167.607
G1 F1200 X161.094 Y169.579 E142.71322
G0 F6000 X162.254 Y169.579
G0 X162.254 Y167.882
G0 X161.094 Y167.882
G1 F1200 X160.819 Y167.607 E142.75203
G0 F6000 X160.819 Y166.448
G0 X188.416 Y166.448
G0 X188.416 Y167.128
G1 F1200 X192.872 Y167.128 E143.19665
G1 X192.872 Y182.872 E144.76759
G1 X188.416 Y182.872 E145.21221
G1 X188.416 Y167.128 E146.78316
G0 F6000 X188.416 Y166.448
G0 X193.48 Y166.52
G0 X193.552 Y168.632
G0 X192.391 Y168.632
G1 F1200 X191.367 Y167.608 E146.92765
G0 F6000 X191.367 Y166.448
G0 X189.67 Y166.448
G0 X189.67 Y167.608
G1 F1200 X192.391 Y170.33 E147.31169
G0 F6000 X193.552 Y170.33
G0 X193.552 Y172.027
G0 X192.391 Y172.027
G1 F1200 X188.895 Y168.53 E147.80508
G0 F6000 X187.736 Y168.53
G0 X187.736 Y170.227
G0 X188.895 Y170.227
G1 F1200 X192.391 Y173.724 E148.29847
G0 F6000 X193.552 Y173.724
G0 X193.552 Y175.421
G0 X192.391 Y175.421
G1 F1200 X188.895 Y171.924 E148.79187
G0 F6000 X187.736 Y171.924
G0 X187.736 Y173.621
G0 X188.895 Y173.621
G1 F1200 X192.391 Y177.118 E149.28526
G0 F6000 X193.552 Y177.118
G0 X193.552 Y178.815
G0 X192.391 Y178.815
G1 F1200 X188.895 Y175.318 E149.77866
G0 F6000 X187.736 Y175.318
G0 X187.736 Y177.015
G0 X188.895 Y177.015
G1 F1200 X192.391 Y180.512 E150.27205
G0 F6000 X193.552 Y180.512
G0 X193.552 Y182.209
G0 X192.391 Y182.209
G1 F1200 X188.895 Y178.712 E150.76544
G0 F6000 X187.736 Y178.712
G0 X187.736 Y180.409
G0 X188.895 Y180.409
G1 F1200 X190.877 Y182.391 E151.04513
G0 F6000 X190.877 Y183.552
G0 X189.18 Y183.552
G0 X189.18 Y182.391
G1 F1200 X188.895 Y182.106 E151.08534
G0 F6000 X187.736 Y182.106
G0 X185.545 Y175.363
G0 X185.191 Y175.009
;TYPE:SKIN
G1 F1200 X184.628 Y175.294 E151.1504
G1 F1500 E144.6504
G0 F6000 X184.736 Y175.402
